(.../EAGLE-5.11.0/ulp/pcb-gcode.ulp)
(Copyright 2005 - 2009 by John Johnson)
(See readme.txt for licensing terms.)
(This file generated from the board:)
(.../FreeSmoke nano 1.0/untitled.brd)
(Current profile is .../EAGLE-5.11.0/ulp/profiles/mach.pp  )
(This file generated 27.05.2012 18:41:23)
(Settings from pcb-machine.h)
(  Tool Size)
(0.2000  )
(Z Axis Settings)
(  High     Up        Down     Drill)
(10.0000 	3.0000  	-0.1000 	-2.0000 )
(spindle on time = 3.0000)
(milling depth = -1.7000)
(text depth = -0.2000)
(tool change at 20.0000 20.0000 20.0000 )
(feed rate xy = F650   )
(feed rate z  = F250   )
(Settings from pcb-defaults.h)
(Default isolate = 0.0254)
(isolate max = 0.2500)
(isolate step = 0.1500)
(Generated bottom outlines, bottom drill, )
(Unit of measure: mm)
( Tool|       Size       |  Min Sub |  Max Sub |   Count )
( T01 | 0.800mm 0.0315in | 0.0000in | 0.0000in |       0 )
( T02 | 0.813mm 0.0320in | 0.0000in | 0.0000in |       0 )
( T03 | 1.016mm 0.0400in | 0.0000in | 0.0000in |       0 )
( T04 | 1.778mm 0.0700in | 0.0000in | 0.0000in |       0 )
(Metric Mode)
G21
(Absolute Coordinates)
G90
M05
G00 Z20.0000 
G00 X20.0000 Y20.0000 
M06 T01  ; 0.8000  
G00 Z3.0000  
M03
G04 P3.000000
G00 X-43.1800 Y19.0500 
G01 Z-2.0000 F250   
G00 Z3.0000  
G00 X-43.1800 Y21.5900 
G01 Z-2.0000 F250   
G00 Z3.0000  
G00 X-43.1800 Y24.1300 
G01 Z-2.0000 F250   
G00 Z3.0000  
G00 X-43.1800 Y26.6700 
G01 Z-2.0000 F250   
G00 Z3.0000  
G00 X-43.1800 Y29.2100 
G01 Z-2.0000 F250   
G00 Z3.0000  
G00 X-43.1800 Y31.7500 
G01 Z-2.0000 F250   
G00 Z3.0000  
G00 X-43.1800 Y34.2900 
G01 Z-2.0000 F250   
G00 Z3.0000  
G00 X-43.1800 Y36.8300 
G01 Z-2.0000 F250   
G00 Z3.0000  
G00 X-43.1800 Y39.3700 
G01 Z-2.0000 F250   
G00 Z3.0000  
G00 X-43.1800 Y41.9100 
G01 Z-2.0000 F250   
G00 Z3.0000  
G00 X-43.1800 Y44.4500 
G01 Z-2.0000 F250   
G00 Z3.0000  
G00 X-43.1800 Y46.9900 
G01 Z-2.0000 F250   
G00 Z3.0000  
G00 X-43.1800 Y49.5300 
G01 Z-2.0000 F250   
G00 Z3.0000  
G00 X-43.1800 Y52.0700 
G01 Z-2.0000 F250   
G00 Z3.0000  
G00 X-43.1800 Y54.6100 
G01 Z-2.0000 F250   
G00 Z3.0000  
G00 X-58.4200 Y19.0500 
G01 Z-2.0000 F250   
G00 Z3.0000  
G00 X-58.4200 Y21.5900 
G01 Z-2.0000 F250   
G00 Z3.0000  
G00 X-58.4200 Y24.1300 
G01 Z-2.0000 F250   
G00 Z3.0000  
G00 X-58.4200 Y26.6700 
G01 Z-2.0000 F250   
G00 Z3.0000  
G00 X-58.4200 Y29.2100 
G01 Z-2.0000 F250   
G00 Z3.0000  
G00 X-58.4200 Y31.7500 
G01 Z-2.0000 F250   
G00 Z3.0000  
G00 X-58.4200 Y34.2900 
G01 Z-2.0000 F250   
G00 Z3.0000  
G00 X-58.4200 Y36.8300 
G01 Z-2.0000 F250   
G00 Z3.0000  
G00 X-58.4200 Y39.3700 
G01 Z-2.0000 F250   
G00 Z3.0000  
G00 X-58.4200 Y41.9100 
G01 Z-2.0000 F250   
G00 Z3.0000  
G00 X-58.4200 Y44.4500 
G01 Z-2.0000 F250   
G00 Z3.0000  
G00 X-58.4200 Y46.9900 
G01 Z-2.0000 F250   
G00 Z3.0000  
G00 X-58.4200 Y49.5300 
G01 Z-2.0000 F250   
G00 Z3.0000  
G00 X-58.4200 Y52.0700 
G01 Z-2.0000 F250   
G00 Z3.0000  
G00 X-58.4200 Y54.6100 
G01 Z-2.0000 F250   
G00 Z3.0000  
M05
G00 Z20.0000 
G00 X20.0000 Y20.0000 
M06 T02  ; 0.8128  
G00 Z3.0000  
M03
G04 P3.000000
G00 X-27.9400 Y39.3700 
G01 Z-2.0000 F250   
G00 Z3.0000  
G00 X-27.9400 Y41.9100 
G01 Z-2.0000 F250   
G00 Z3.0000  
G00 X-27.9400 Y44.4500 
G01 Z-2.0000 F250   
G00 Z3.0000  
G00 X-27.9400 Y46.9900 
G01 Z-2.0000 F250   
G00 Z3.0000  
G00 X-27.9400 Y49.5300 
G01 Z-2.0000 F250   
G00 Z3.0000  
G00 X-27.9400 Y52.0700 
G01 Z-2.0000 F250   
G00 Z3.0000  
G00 X-27.9400 Y54.6100 
G01 Z-2.0000 F250   
G00 Z3.0000  
G00 X-27.9400 Y57.1500 
G01 Z-2.0000 F250   
G00 Z3.0000  
G00 X-27.9400 Y59.6900 
G01 Z-2.0000 F250   
G00 Z3.0000  
G00 X-35.5600 Y39.3700 
G01 Z-2.0000 F250   
G00 Z3.0000  
G00 X-35.5600 Y41.9100 
G01 Z-2.0000 F250   
G00 Z3.0000  
G00 X-35.5600 Y44.4500 
G01 Z-2.0000 F250   
G00 Z3.0000  
G00 X-35.5600 Y46.9900 
G01 Z-2.0000 F250   
G00 Z3.0000  
G00 X-35.5600 Y49.5300 
G01 Z-2.0000 F250   
G00 Z3.0000  
G00 X-35.5600 Y52.0700 
G01 Z-2.0000 F250   
G00 Z3.0000  
G00 X-35.5600 Y54.6100 
G01 Z-2.0000 F250   
G00 Z3.0000  
G00 X-35.5600 Y57.1500 
G01 Z-2.0000 F250   
G00 Z3.0000  
G00 X-35.5600 Y59.6900 
G01 Z-2.0000 F250   
G00 Z3.0000  
M05
G00 Z20.0000 
G00 X20.0000 Y20.0000 
M06 T03  ; 1.0160  
G00 Z3.0000  
M03
G04 P3.000000
G00 X-22.8600 Y31.7500 
G01 Z-2.0000 F250   
G00 Z3.0000  
G00 X-22.8600 Y34.2900 
G01 Z-2.0000 F250   
G00 Z3.0000  
G00 X-22.8600 Y36.8300 
G01 Z-2.0000 F250   
G00 Z3.0000  
G00 X-22.8600 Y39.3700 
G01 Z-2.0000 F250   
G00 Z3.0000  
G00 X-22.8600 Y41.9100 
G01 Z-2.0000 F250   
G00 Z3.0000  
G00 X-22.8600 Y44.4500 
G01 Z-2.0000 F250   
G00 Z3.0000  
G00 X-22.8600 Y46.9900 
G01 Z-2.0000 F250   
G00 Z3.0000  
G00 X-30.4800 Y13.9700 
G01 Z-2.0000 F250   
G00 Z3.0000  
G00 X-30.4800 Y16.5100 
G01 Z-2.0000 F250   
G00 Z3.0000  
G00 X-30.4800 Y19.0500 
G01 Z-2.0000 F250   
G00 Z3.0000  
G00 X-30.4800 Y21.5900 
G01 Z-2.0000 F250   
G00 Z3.0000  
G00 X-30.4800 Y24.1300 
G01 Z-2.0000 F250   
G00 Z3.0000  
G00 X-30.4800 Y26.6700 
G01 Z-2.0000 F250   
G00 Z3.0000  
G00 X-30.4800 Y29.2100 
G01 Z-2.0000 F250   
G00 Z3.0000  
G00 X-63.5000 Y52.0700 
G01 Z-2.0000 F250   
G00 Z3.0000  
G00 X-63.5000 Y54.6100 
G01 Z-2.0000 F250   
G00 Z3.0000  
G00 X-66.0400 Y38.1000 
G01 Z-2.0000 F250   
G00 Z3.0000  
G00 X-66.0400 Y40.6400 
G01 Z-2.0000 F250   
G00 Z3.0000  
G00 X-66.0400 Y43.1800 
G01 Z-2.0000 F250   
G00 Z3.0000  
G00 X-66.0400 Y45.7200 
G01 Z-2.0000 F250   
G00 Z3.0000  
M05
G00 Z20.0000 
G00 X20.0000 Y20.0000 
M06 T04  ; 1.7780  
G00 Z3.0000  
M03
G04 P3.000000
G00 X-43.1800 Y16.5100 
G01 Z-2.0000 F250   
G00 Z3.0000  
G00 X-43.1800 Y57.1500 
G01 Z-2.0000 F250   
G00 Z3.0000  
G00 X-58.4200 Y16.5100 
G01 Z-2.0000 F250   
G00 Z3.0000  
G00 X-58.4200 Y57.1500 
G01 Z-2.0000 F250   
G00 Z3.0000  
T01 
G00 Z10.0000 
M05
M02
