(.../EAGLE-5.11.0/ulp/pcb-gcode.ulp)
(Copyright 2005 - 2009 by John Johnson)
(See readme.txt for licensing terms.)
(This file generated from the board:)
(.../FreeSmoke nano 1.0/untitled.brd)
(Current profile is .../EAGLE-5.11.0/ulp/profiles/mach.pp  )
(This file generated 27.05.2012 18:41:20)
(Settings from pcb-machine.h)
(  Tool Size)
(0.2000  )
(Z Axis Settings)
(  High     Up        Down     Drill)
(10.0000 	3.0000  	-0.1000 	-2.0000 )
(spindle on time = 3.0000)
(milling depth = -1.7000)
(text depth = -0.2000)
(tool change at 20.0000 20.0000 20.0000 )
(feed rate xy = F650   )
(feed rate z  = F250   )
(Settings from pcb-defaults.h)
(Default isolate = 0.0254)
(isolate max = 0.2500)
(isolate step = 0.1500)
(Generated bottom outlines, bottom drill, )
(Unit of measure: mm)
(Metric Mode)
G21
(Absolute Coordinates)
G90
G00 X0.0000  Y0.0000  
M03
G04 P3.000000
G00 Z3.0000  
G00 X-29.0061 Y28.6782 
G01 Z-0.1000 F250   
G01 X-29.0287 Y28.6443 F650   
G01 X-29.1523 Y28.5207 
G01 X-29.2976 Y28.4236 
G01 X-29.4591 Y28.3567 
G01 X-29.6305 Y28.3226 
G01 X-31.3294 Y28.3226 
G01 X-31.5008 Y28.3567 
G01 X-31.6623 Y28.4236 
G01 X-31.8076 Y28.5207 
G01 X-31.9312 Y28.6443 
G01 X-32.0283 Y28.7896 
G01 X-32.0952 Y28.9511 
G01 X-32.1293 Y29.1225 
G01 X-32.1293 Y29.2974 
G01 X-32.0952 Y29.4688 
G01 X-32.0283 Y29.6303 
G01 X-31.9312 Y29.7756 
G01 X-31.8076 Y29.8992 
G01 X-31.6623 Y29.9963 
G01 X-31.5008 Y30.0632 
G01 X-31.3294 Y30.0973 
G01 X-29.6305 Y30.0973 
G01 X-29.4591 Y30.0632 
G01 X-29.2976 Y29.9963 
G01 X-29.1523 Y29.8992 
G01 X-29.0287 Y29.7756 
G01 X-29.0061 Y29.7417 
G01 X-20.8517 Y29.7417 
G01 X-20.8517 Y46.4582 
G01 X-21.3861 Y46.4582 
G01 X-21.4087 Y46.4243 
G01 X-21.5323 Y46.3007 
G01 X-21.6776 Y46.2036 
G01 X-21.8391 Y46.1367 
G01 X-22.0105 Y46.1026 
G01 X-23.7094 Y46.1026 
G01 X-23.8808 Y46.1367 
G01 X-24.0423 Y46.2036 
G01 X-24.1876 Y46.3007 
G01 X-24.3112 Y46.4243 
G01 X-24.4083 Y46.5696 
G01 X-24.4752 Y46.7311 
G01 X-24.5093 Y46.9025 
G01 X-24.5093 Y47.0774 
G01 X-24.4752 Y47.2488 
G01 X-24.4083 Y47.4103 
G01 X-24.3112 Y47.5556 
G01 X-24.1876 Y47.6792 
G01 X-24.0423 Y47.7763 
G01 X-23.8808 Y47.8432 
G01 X-23.7094 Y47.8773 
G01 X-22.0105 Y47.8773 
G01 X-21.8391 Y47.8432 
G01 X-21.6776 Y47.7763 
G01 X-21.5323 Y47.6792 
G01 X-21.4087 Y47.5556 
G01 X-21.3861 Y47.5217 
G01 X-20.2499 Y47.5217 
G01 X-20.1147 Y47.4855 
G01 X-19.9934 Y47.4155 
G01 X-19.8944 Y47.3165 
G01 X-19.8244 Y47.1952 
G01 X-19.7882 Y47.0600 
G01 X-19.7882 Y46.9199 
G01 X-19.7882 Y29.2800 
G01 X-19.7882 Y17.8500 
G01 X-19.7882 Y17.7099 
G01 X-19.8244 Y17.5747 
G01 X-19.8944 Y17.4534 
G01 X-30.0544 Y7.2934  
G01 X-30.1534 Y7.1944  
G01 X-30.2747 Y7.1244  
G01 X-30.4099 Y7.0882  
G01 X-71.0499 Y7.0882  
G01 X-71.1900 Y7.0882  
G01 X-71.3252 Y7.1244  
G01 X-71.4465 Y7.1944  
G01 X-71.5455 Y7.2934  
G01 X-71.6155 Y7.4147  
G01 X-71.6517 Y7.5499  
G01 X-71.6517 Y43.1099 
G01 X-71.6517 Y43.2500 
G01 X-71.6155 Y43.3852 
G01 X-71.5455 Y43.5065 
G01 X-69.0055 Y46.0465 
G01 X-68.9065 Y46.1455 
G01 X-68.7852 Y46.2155 
G01 X-68.6500 Y46.2517 
G01 X-67.5138 Y46.2517 
G01 X-67.4912 Y46.2856 
G01 X-67.3676 Y46.4092 
G01 X-67.2223 Y46.5063 
G01 X-67.0608 Y46.5732 
G01 X-66.8894 Y46.6073 
G01 X-66.5717 Y46.6073 
G01 X-66.5717 Y49.4599 
G01 X-66.5717 Y49.6000 
G01 X-66.5355 Y49.7352 
G01 X-66.4655 Y49.8565 
G01 X-64.8844 Y51.4375 
G01 X-64.9512 Y51.5043 
G01 X-65.0483 Y51.6496 
G01 X-65.1152 Y51.8111 
G01 X-65.1493 Y51.9825 
G01 X-65.1493 Y52.1574 
G01 X-65.1152 Y52.3288 
G01 X-65.0483 Y52.4903 
G01 X-64.9512 Y52.6356 
G01 X-64.8276 Y52.7592 
G01 X-64.6823 Y52.8563 
G01 X-64.5208 Y52.9232 
G01 X-64.3494 Y52.9573 
G01 X-62.6505 Y52.9573 
G01 X-62.4791 Y52.9232 
G01 X-62.3176 Y52.8563 
G01 X-62.1723 Y52.7592 
G01 X-62.0487 Y52.6356 
G01 X-62.0261 Y52.6017 
G01 X-59.2846 Y52.6017 
G01 X-59.2079 Y52.7166 
G01 X-59.0666 Y52.8579 
G01 X-58.9005 Y52.9689 
G01 X-58.7159 Y53.0453 
G01 X-58.5199 Y53.0843 
G01 X-58.3200 Y53.0843 
G01 X-58.1240 Y53.0453 
G01 X-57.9394 Y52.9689 
G01 X-57.7733 Y52.8579 
G01 X-57.6320 Y52.7166 
G01 X-57.5210 Y52.5505 
G01 X-57.4446 Y52.3659 
G01 X-57.4056 Y52.1699 
G01 X-57.4056 Y51.9700 
G01 X-57.4446 Y51.7740 
G01 X-57.5210 Y51.5894 
G01 X-57.6320 Y51.4233 
G01 X-57.7733 Y51.2820 
G01 X-57.9394 Y51.1710 
G01 X-58.1240 Y51.0946 
G01 X-58.3200 Y51.0556 
G01 X-58.5199 Y51.0556 
G01 X-58.7159 Y51.0946 
G01 X-58.9005 Y51.1710 
G01 X-59.0666 Y51.2820 
G01 X-59.2079 Y51.4233 
G01 X-59.2846 Y51.5382 
G01 X-62.0261 Y51.5382 
G01 X-62.0487 Y51.5043 
G01 X-62.1723 Y51.3807 
G01 X-62.3176 Y51.2836 
G01 X-62.4791 Y51.2167 
G01 X-62.6505 Y51.1826 
G01 X-63.6353 Y51.1826 
G01 X-65.5082 Y49.3096 
G01 X-65.5082 Y46.6073 
G01 X-65.1905 Y46.6073 
G01 X-65.0191 Y46.5732 
G01 X-64.8576 Y46.5063 
G01 X-64.7123 Y46.4092 
G01 X-64.5887 Y46.2856 
G01 X-64.4916 Y46.1403 
G01 X-64.4247 Y45.9788 
G01 X-64.3906 Y45.8074 
G01 X-64.3906 Y45.6325 
G01 X-64.4247 Y45.4611 
G01 X-64.4916 Y45.2996 
G01 X-64.5887 Y45.1543 
G01 X-64.7123 Y45.0307 
G01 X-64.8576 Y44.9336 
G01 X-65.0191 Y44.8667 
G01 X-65.1905 Y44.8326 
G01 X-66.8894 Y44.8326 
G01 X-67.0608 Y44.8667 
G01 X-67.2223 Y44.9336 
G01 X-67.3676 Y45.0307 
G01 X-67.4912 Y45.1543 
G01 X-67.5138 Y45.1882 
G01 X-68.3596 Y45.1882 
G01 X-70.5882 Y42.9596 
G01 X-70.5882 Y8.1517  
G01 X-30.7003 Y8.1517  
G01 X-20.8517 Y18.0003 
G01 X-20.8517 Y28.6782 
G01 X-29.0061 Y28.6782 
G00 Z3.0000  
G00 X-66.8894 Y41.5273 
G01 Z-0.1000 F250   
G01 X-65.1905 Y41.5273 F650   
G01 X-65.0191 Y41.4932 
G01 X-64.8576 Y41.4263 
G01 X-64.7123 Y41.3292 
G01 X-64.5887 Y41.2056 
G01 X-64.5661 Y41.1717 
G01 X-63.5700 Y41.1717 
G01 X-63.4299 Y41.1717 
G01 X-63.2947 Y41.1355 
G01 X-63.1734 Y41.0655 
G01 X-61.9034 Y39.7955 
G01 X-61.8044 Y39.6965 
G01 X-61.7344 Y39.5752 
G01 X-61.6982 Y39.4400 
G01 X-61.6982 Y34.8217 
G01 X-59.2847 Y34.8217 
G01 X-59.2079 Y34.9366 
G01 X-59.0666 Y35.0779 
G01 X-58.9005 Y35.1889 
G01 X-58.7159 Y35.2653 
G01 X-58.5199 Y35.3043 
G01 X-58.3200 Y35.3043 
G01 X-58.1240 Y35.2653 
G01 X-57.9394 Y35.1889 
G01 X-57.7733 Y35.0779 
G01 X-57.6320 Y34.9366 
G01 X-57.5210 Y34.7705 
G01 X-57.4446 Y34.5859 
G01 X-57.4056 Y34.3899 
G01 X-57.4056 Y34.1900 
G01 X-57.4446 Y33.9940 
G01 X-57.5210 Y33.8094 
G01 X-57.6320 Y33.6433 
G01 X-57.7733 Y33.5020 
G01 X-57.9394 Y33.3910 
G01 X-58.1240 Y33.3146 
G01 X-58.3200 Y33.2756 
G01 X-58.5199 Y33.2756 
G01 X-58.7159 Y33.3146 
G01 X-58.9005 Y33.3910 
G01 X-59.0666 Y33.5020 
G01 X-59.2079 Y33.6433 
G01 X-59.2847 Y33.7582 
G01 X-62.3000 Y33.7582 
G01 X-62.4352 Y33.7944 
G01 X-62.5565 Y33.8644 
G01 X-62.6555 Y33.9634 
G01 X-62.7255 Y34.0847 
G01 X-62.7617 Y34.2199 
G01 X-62.7617 Y34.3600 
G01 X-62.7617 Y39.1496 
G01 X-63.7203 Y40.1082 
G01 X-64.5661 Y40.1082 
G01 X-64.5887 Y40.0743 
G01 X-64.7123 Y39.9507 
G01 X-64.8576 Y39.8536 
G01 X-65.0191 Y39.7867 
G01 X-65.1905 Y39.7526 
G01 X-66.8894 Y39.7526 
G01 X-67.0608 Y39.7867 
G01 X-67.2223 Y39.8536 
G01 X-67.3676 Y39.9507 
G01 X-67.4912 Y40.0743 
G01 X-67.5883 Y40.2196 
G01 X-67.6552 Y40.3811 
G01 X-67.6893 Y40.5525 
G01 X-67.6893 Y40.7274 
G01 X-67.6552 Y40.8988 
G01 X-67.5883 Y41.0603 
G01 X-67.4912 Y41.2056 
G01 X-67.3676 Y41.3292 
G01 X-67.2223 Y41.4263 
G01 X-67.0608 Y41.4932 
G01 X-66.8894 Y41.5273 
G00 Z3.0000  
G00 X-66.8894 Y44.0673 
G01 Z-0.1000 F250   
G01 X-65.1905 Y44.0673 F650   
G01 X-65.0191 Y44.0332 
G01 X-64.8576 Y43.9663 
G01 X-64.7123 Y43.8692 
G01 X-64.5887 Y43.7456 
G01 X-64.5661 Y43.7117 
G01 X-63.7203 Y43.7117 
G01 X-62.7617 Y44.6703 
G01 X-62.7617 Y46.9199 
G01 X-62.7617 Y47.0600 
G01 X-62.7255 Y47.1952 
G01 X-62.6555 Y47.3165 
G01 X-62.5565 Y47.4155 
G01 X-62.4352 Y47.4855 
G01 X-62.3000 Y47.5217 
G01 X-59.2847 Y47.5217 
G01 X-59.2079 Y47.6366 
G01 X-59.0666 Y47.7779 
G01 X-58.9005 Y47.8889 
G01 X-58.7159 Y47.9653 
G01 X-58.5199 Y48.0043 
G01 X-58.3200 Y48.0043 
G01 X-58.1240 Y47.9653 
G01 X-57.9394 Y47.8889 
G01 X-57.7733 Y47.7779 
G01 X-57.6320 Y47.6366 
G01 X-57.5210 Y47.4705 
G01 X-57.4446 Y47.2859 
G01 X-57.4056 Y47.0899 
G01 X-57.4056 Y46.8900 
G01 X-57.4446 Y46.6940 
G01 X-57.5210 Y46.5094 
G01 X-57.6320 Y46.3433 
G01 X-57.7733 Y46.2020 
G01 X-57.9394 Y46.0910 
G01 X-58.1240 Y46.0146 
G01 X-58.3200 Y45.9756 
G01 X-58.5199 Y45.9756 
G01 X-58.7159 Y46.0146 
G01 X-58.9005 Y46.0910 
G01 X-59.0666 Y46.2020 
G01 X-59.2079 Y46.3433 
G01 X-59.2847 Y46.4582 
G01 X-61.6982 Y46.4582 
G01 X-61.6982 Y44.3799 
G01 X-61.7344 Y44.2447 
G01 X-61.8044 Y44.1234 
G01 X-61.9034 Y44.0244 
G01 X-63.1734 Y42.7544 
G01 X-63.2947 Y42.6844 
G01 X-63.4299 Y42.6482 
G01 X-63.5700 Y42.6482 
G01 X-64.5661 Y42.6482 
G01 X-64.5887 Y42.6143 
G01 X-64.7123 Y42.4907 
G01 X-64.8576 Y42.3936 
G01 X-65.0191 Y42.3267 
G01 X-65.1905 Y42.2926 
G01 X-66.8894 Y42.2926 
G01 X-67.0608 Y42.3267 
G01 X-67.2223 Y42.3936 
G01 X-67.3676 Y42.4907 
G01 X-67.4912 Y42.6143 
G01 X-67.5883 Y42.7596 
G01 X-67.6552 Y42.9211 
G01 X-67.6893 Y43.0925 
G01 X-67.6893 Y43.2674 
G01 X-67.6552 Y43.4388 
G01 X-67.5883 Y43.6003 
G01 X-67.4912 Y43.7456 
G01 X-67.3676 Y43.8692 
G01 X-67.2223 Y43.9663 
G01 X-67.0608 Y44.0332 
G01 X-66.8894 Y44.0673 
G00 Z3.0000  
G00 X-29.6305 Y25.7826 
G01 Z-0.1000 F250   
G01 X-31.3294 Y25.7826 F650   
G01 X-31.5008 Y25.8167 
G01 X-31.6623 Y25.8836 
G01 X-31.8076 Y25.9807 
G01 X-31.9312 Y26.1043 
G01 X-31.9538 Y26.1382 
G01 X-34.2199 Y26.1382 
G01 X-34.3600 Y26.1382 
G01 X-34.4952 Y26.1744 
G01 X-34.6165 Y26.2444 
G01 X-34.7155 Y26.3434 
G01 X-34.7855 Y26.4647 
G01 X-34.8217 Y26.5999 
G01 X-34.8217 Y28.6782 
G01 X-42.3153 Y28.6782 
G01 X-42.3920 Y28.5633 
G01 X-42.5333 Y28.4220 
G01 X-42.6994 Y28.3110 
G01 X-42.8840 Y28.2346 
G01 X-43.0800 Y28.1956 
G01 X-43.2799 Y28.1956 
G01 X-43.4759 Y28.2346 
G01 X-43.6605 Y28.3110 
G01 X-43.8266 Y28.4220 
G01 X-43.9679 Y28.5633 
G01 X-44.0789 Y28.7294 
G01 X-44.1553 Y28.9140 
G01 X-44.1943 Y29.1100 
G01 X-44.1943 Y29.3099 
G01 X-44.1553 Y29.5059 
G01 X-44.0789 Y29.6905 
G01 X-43.9679 Y29.8566 
G01 X-43.8266 Y29.9979 
G01 X-43.6605 Y30.1089 
G01 X-43.4759 Y30.1853 
G01 X-43.2799 Y30.2243 
G01 X-43.0800 Y30.2243 
G01 X-42.8840 Y30.1853 
G01 X-42.6994 Y30.1089 
G01 X-42.5333 Y29.9979 
G01 X-42.3920 Y29.8566 
G01 X-42.3153 Y29.7417 
G01 X-34.2199 Y29.7417 
G01 X-34.0847 Y29.7055 
G01 X-33.9634 Y29.6355 
G01 X-33.8644 Y29.5365 
G01 X-33.7944 Y29.4152 
G01 X-33.7582 Y29.2800 
G01 X-33.7582 Y29.1399 
G01 X-33.7582 Y27.2017 
G01 X-31.9538 Y27.2017 
G01 X-31.9312 Y27.2356 
G01 X-31.8076 Y27.3592 
G01 X-31.6623 Y27.4563 
G01 X-31.5008 Y27.5232 
G01 X-31.3294 Y27.5573 
G01 X-29.6305 Y27.5573 
G01 X-29.4591 Y27.5232 
G01 X-29.2976 Y27.4563 
G01 X-29.1523 Y27.3592 
G01 X-29.0287 Y27.2356 
G01 X-28.9316 Y27.0903 
G01 X-28.8647 Y26.9288 
G01 X-28.8306 Y26.7574 
G01 X-28.8306 Y26.5825 
G01 X-28.8647 Y26.4111 
G01 X-28.9316 Y26.2496 
G01 X-29.0287 Y26.1043 
G01 X-29.1523 Y25.9807 
G01 X-29.2976 Y25.8836 
G01 X-29.4591 Y25.8167 
G01 X-29.6305 Y25.7826 
G00 Z3.0000  
G00 X-29.6305 Y20.7026 
G01 Z-0.1000 F250   
G01 X-31.3294 Y20.7026 F650   
G01 X-31.5008 Y20.7367 
G01 X-31.6623 Y20.8036 
G01 X-31.8076 Y20.9007 
G01 X-31.9312 Y21.0243 
G01 X-31.9538 Y21.0582 
G01 X-39.2999 Y21.0582 
G01 X-39.4400 Y21.0582 
G01 X-39.5752 Y21.0944 
G01 X-39.6965 Y21.1644 
G01 X-39.7955 Y21.2634 
G01 X-39.8655 Y21.3847 
G01 X-39.9017 Y21.5199 
G01 X-39.9017 Y23.5982 
G01 X-42.3153 Y23.5982 
G01 X-42.3920 Y23.4833 
G01 X-42.5333 Y23.3420 
G01 X-42.6994 Y23.2310 
G01 X-42.8840 Y23.1546 
G01 X-43.0800 Y23.1156 
G01 X-43.2799 Y23.1156 
G01 X-43.4759 Y23.1546 
G01 X-43.6605 Y23.2310 
G01 X-43.8266 Y23.3420 
G01 X-43.9679 Y23.4833 
G01 X-44.0789 Y23.6494 
G01 X-44.1553 Y23.8340 
G01 X-44.1943 Y24.0300 
G01 X-44.1943 Y24.2299 
G01 X-44.1553 Y24.4259 
G01 X-44.0789 Y24.6105 
G01 X-43.9679 Y24.7766 
G01 X-43.8266 Y24.9179 
G01 X-43.6605 Y25.0289 
G01 X-43.4759 Y25.1053 
G01 X-43.2799 Y25.1443 
G01 X-43.0800 Y25.1443 
G01 X-42.8840 Y25.1053 
G01 X-42.6994 Y25.0289 
G01 X-42.5333 Y24.9179 
G01 X-42.3920 Y24.7766 
G01 X-42.3153 Y24.6617 
G01 X-39.2999 Y24.6617 
G01 X-39.1647 Y24.6255 
G01 X-39.0434 Y24.5555 
G01 X-38.9444 Y24.4565 
G01 X-38.8744 Y24.3352 
G01 X-38.8382 Y24.2000 
G01 X-38.8382 Y24.0599 
G01 X-38.8382 Y22.1217 
G01 X-31.9538 Y22.1217 
G01 X-31.9312 Y22.1556 
G01 X-31.8076 Y22.2792 
G01 X-31.6623 Y22.3763 
G01 X-31.5008 Y22.4432 
G01 X-31.3294 Y22.4773 
G01 X-29.6305 Y22.4773 
G01 X-29.4591 Y22.4432 
G01 X-29.2976 Y22.3763 
G01 X-29.1523 Y22.2792 
G01 X-29.0287 Y22.1556 
G01 X-28.9316 Y22.0103 
G01 X-28.8647 Y21.8488 
G01 X-28.8306 Y21.6774 
G01 X-28.8306 Y21.5025 
G01 X-28.8647 Y21.3311 
G01 X-28.9316 Y21.1696 
G01 X-29.0287 Y21.0243 
G01 X-29.1523 Y20.9007 
G01 X-29.2976 Y20.8036 
G01 X-29.4591 Y20.7367 
G01 X-29.6305 Y20.7026 
G00 Z3.0000  
G00 X-29.6305 Y15.6226 
G01 Z-0.1000 F250   
G01 X-30.6152 Y15.6226 F650   
G01 X-31.3933 Y14.8446 
G01 X-31.3294 Y14.8573 
G01 X-29.6305 Y14.8573 
G01 X-29.4591 Y14.8232 
G01 X-29.2976 Y14.7563 
G01 X-29.1523 Y14.6592 
G01 X-29.0287 Y14.5356 
G01 X-28.9316 Y14.3903 
G01 X-28.8647 Y14.2288 
G01 X-28.8306 Y14.0574 
G01 X-28.8306 Y13.8825 
G01 X-28.8647 Y13.7111 
G01 X-28.9316 Y13.5496 
G01 X-29.0287 Y13.4043 
G01 X-29.1523 Y13.2807 
G01 X-29.2976 Y13.1836 
G01 X-29.4591 Y13.1167 
G01 X-29.6305 Y13.0826 
G01 X-29.9482 Y13.0826 
G01 X-29.9482 Y12.7700 
G01 X-29.9482 Y12.6299 
G01 X-29.9844 Y12.4947 
G01 X-30.0544 Y12.3734 
G01 X-32.5944 Y9.8334  
G01 X-32.6934 Y9.7344  
G01 X-32.8147 Y9.6644  
G01 X-32.9499 Y9.6282  
G01 X-58.3499 Y9.6282  
G01 X-58.4900 Y9.6282  
G01 X-58.6252 Y9.6644  
G01 X-58.7465 Y9.7344  
G01 X-58.8455 Y9.8334  
G01 X-58.9155 Y9.9547  
G01 X-58.9517 Y10.0899 
G01 X-58.9517 Y18.1852 
G01 X-59.0666 Y18.2620 
G01 X-59.2079 Y18.4033 
G01 X-59.3189 Y18.5694 
G01 X-59.3953 Y18.7540 
G01 X-59.4343 Y18.9500 
G01 X-59.4343 Y19.1499 
G01 X-59.3953 Y19.3459 
G01 X-59.3189 Y19.5305 
G01 X-59.2079 Y19.6966 
G01 X-59.0666 Y19.8379 
G01 X-58.9005 Y19.9489 
G01 X-58.7159 Y20.0253 
G01 X-58.5199 Y20.0643 
G01 X-58.3200 Y20.0643 
G01 X-58.1240 Y20.0253 
G01 X-57.9394 Y19.9489 
G01 X-57.7733 Y19.8379 
G01 X-57.6320 Y19.6966 
G01 X-57.5210 Y19.5305 
G01 X-57.4446 Y19.3459 
G01 X-57.4056 Y19.1499 
G01 X-57.4056 Y18.9500 
G01 X-57.4446 Y18.7540 
G01 X-57.5210 Y18.5694 
G01 X-57.6320 Y18.4033 
G01 X-57.7733 Y18.2620 
G01 X-57.8882 Y18.1852 
G01 X-57.8882 Y10.6917 
G01 X-33.2403 Y10.6917 
G01 X-31.0117 Y12.9203 
G01 X-31.0117 Y13.0826 
G01 X-31.3294 Y13.0826 
G01 X-31.5008 Y13.1167 
G01 X-31.6623 Y13.1836 
G01 X-31.8076 Y13.2807 
G01 X-31.9312 Y13.4043 
G01 X-32.0283 Y13.5496 
G01 X-32.0952 Y13.7111 
G01 X-32.1293 Y13.8825 
G01 X-32.1293 Y14.0574 
G01 X-32.1166 Y14.1213 
G01 X-33.8644 Y12.3734 
G01 X-33.9634 Y12.2744 
G01 X-34.0847 Y12.2044 
G01 X-34.2199 Y12.1682 
G01 X-49.6000 Y12.1682 
G01 X-49.7352 Y12.2044 
G01 X-49.8565 Y12.2744 
G01 X-49.9555 Y12.3734 
G01 X-53.6664 Y16.0844 
G01 X-53.7655 Y16.1834 
G01 X-53.8355 Y16.3047 
G01 X-53.8717 Y16.4399 
G01 X-53.8717 Y21.5199 
G01 X-53.8717 Y21.6600 
G01 X-53.8355 Y21.7952 
G01 X-53.7655 Y21.9165 
G01 X-53.6665 Y22.0155 
G01 X-53.5452 Y22.0855 
G01 X-53.4100 Y22.1217 
G01 X-44.0446 Y22.1217 
G01 X-43.9679 Y22.2366 
G01 X-43.8266 Y22.3779 
G01 X-43.6605 Y22.4889 
G01 X-43.4759 Y22.5653 
G01 X-43.2799 Y22.6043 
G01 X-43.0800 Y22.6043 
G01 X-42.8840 Y22.5653 
G01 X-42.6994 Y22.4889 
G01 X-42.5333 Y22.3779 
G01 X-42.3920 Y22.2366 
G01 X-42.2810 Y22.0705 
G01 X-42.2046 Y21.8859 
G01 X-42.1656 Y21.6899 
G01 X-42.1656 Y21.4900 
G01 X-42.2046 Y21.2940 
G01 X-42.2810 Y21.1094 
G01 X-42.3920 Y20.9433 
G01 X-42.5333 Y20.8020 
G01 X-42.6994 Y20.6910 
G01 X-42.8840 Y20.6146 
G01 X-43.0800 Y20.5756 
G01 X-43.2799 Y20.5756 
G01 X-43.4759 Y20.6146 
G01 X-43.6605 Y20.6910 
G01 X-43.8266 Y20.8020 
G01 X-43.9679 Y20.9433 
G01 X-44.0446 Y21.0582 
G01 X-52.8082 Y21.0582 
G01 X-52.8082 Y16.7302 
G01 X-49.3097 Y13.2317 
G01 X-34.5103 Y13.2317 
G01 X-31.8644 Y15.8776 
G01 X-31.9312 Y15.9443 
G01 X-32.0283 Y16.0896 
G01 X-32.0952 Y16.2511 
G01 X-32.1293 Y16.4225 
G01 X-32.1293 Y16.5974 
G01 X-32.0952 Y16.7688 
G01 X-32.0283 Y16.9303 
G01 X-31.9312 Y17.0756 
G01 X-31.8076 Y17.1992 
G01 X-31.6623 Y17.2963 
G01 X-31.5008 Y17.3632 
G01 X-31.3294 Y17.3973 
G01 X-29.6305 Y17.3973 
G01 X-29.4591 Y17.3632 
G01 X-29.2976 Y17.2963 
G01 X-29.1523 Y17.1992 
G01 X-29.0287 Y17.0756 
G01 X-28.9316 Y16.9303 
G01 X-28.8647 Y16.7688 
G01 X-28.8306 Y16.5974 
G01 X-28.8306 Y16.4225 
G01 X-28.8647 Y16.2511 
G01 X-28.9316 Y16.0896 
G01 X-29.0287 Y15.9443 
G01 X-29.1523 Y15.8207 
G01 X-29.2976 Y15.7236 
G01 X-29.4591 Y15.6567 
G01 X-29.6305 Y15.6226 
G00 Z3.0000  
G00 X-22.0105 Y41.0226 
G01 Z-0.1000 F250   
G01 X-23.7094 Y41.0226 F650   
G01 X-23.8808 Y41.0567 
G01 X-24.0423 Y41.1236 
G01 X-24.1876 Y41.2207 
G01 X-24.3112 Y41.3443 
G01 X-24.3338 Y41.3782 
G01 X-26.7000 Y41.3782 
G01 X-26.7786 Y41.2996 
G01 X-26.9073 Y41.2136 
G01 X-27.0503 Y41.1544 
G01 X-27.2021 Y41.1242 
G01 X-28.6778 Y41.1242 
G01 X-28.8296 Y41.1544 
G01 X-28.9726 Y41.2136 
G01 X-29.1013 Y41.2996 
G01 X-29.2107 Y41.4090 
G01 X-29.2967 Y41.5377 
G01 X-29.3559 Y41.6807 
G01 X-29.3861 Y41.8325 
G01 X-29.3861 Y41.9874 
G01 X-29.3559 Y42.1392 
G01 X-29.2967 Y42.2822 
G01 X-29.2107 Y42.4109 
G01 X-29.1013 Y42.5203 
G01 X-28.9726 Y42.6063 
G01 X-28.8296 Y42.6655 
G01 X-28.6778 Y42.6957 
G01 X-27.2021 Y42.6957 
G01 X-27.0503 Y42.6655 
G01 X-26.9073 Y42.6063 
G01 X-26.7786 Y42.5203 
G01 X-26.7000 Y42.4417 
G01 X-24.3338 Y42.4417 
G01 X-24.3112 Y42.4756 
G01 X-24.1876 Y42.5992 
G01 X-24.0423 Y42.6963 
G01 X-23.8808 Y42.7632 
G01 X-23.7094 Y42.7973 
G01 X-22.0105 Y42.7973 
G01 X-21.8391 Y42.7632 
G01 X-21.6776 Y42.6963 
G01 X-21.5323 Y42.5992 
G01 X-21.4087 Y42.4756 
G01 X-21.3116 Y42.3303 
G01 X-21.2447 Y42.1688 
G01 X-21.2106 Y41.9974 
G01 X-21.2106 Y41.8225 
G01 X-21.2447 Y41.6511 
G01 X-21.3116 Y41.4896 
G01 X-21.4087 Y41.3443 
G01 X-21.5323 Y41.2207 
G01 X-21.6776 Y41.1236 
G01 X-21.8391 Y41.0567 
G01 X-22.0105 Y41.0226 
G00 Z3.0000  
G00 X-22.0105 Y33.4026 
G01 Z-0.1000 F250   
G01 X-23.7094 Y33.4026 F650   
G01 X-23.8808 Y33.4367 
G01 X-24.0423 Y33.5036 
G01 X-24.1876 Y33.6007 
G01 X-24.3112 Y33.7243 
G01 X-24.3338 Y33.7582 
G01 X-42.3153 Y33.7582 
G01 X-42.3920 Y33.6433 
G01 X-42.5333 Y33.5020 
G01 X-42.6994 Y33.3910 
G01 X-42.8840 Y33.3146 
G01 X-43.0800 Y33.2756 
G01 X-43.2799 Y33.2756 
G01 X-43.4759 Y33.3146 
G01 X-43.6605 Y33.3910 
G01 X-43.8266 Y33.5020 
G01 X-43.9679 Y33.6433 
G01 X-44.0789 Y33.8094 
G01 X-44.1553 Y33.9940 
G01 X-44.1943 Y34.1900 
G01 X-44.1943 Y34.3899 
G01 X-44.1553 Y34.5859 
G01 X-44.0789 Y34.7705 
G01 X-43.9679 Y34.9366 
G01 X-43.8266 Y35.0779 
G01 X-43.6605 Y35.1889 
G01 X-43.4759 Y35.2653 
G01 X-43.2799 Y35.3043 
G01 X-43.0800 Y35.3043 
G01 X-42.8840 Y35.2653 
G01 X-42.6994 Y35.1889 
G01 X-42.5333 Y35.0779 
G01 X-42.3920 Y34.9366 
G01 X-42.3153 Y34.8217 
G01 X-24.3338 Y34.8217 
G01 X-24.3112 Y34.8556 
G01 X-24.1876 Y34.9792 
G01 X-24.0423 Y35.0763 
G01 X-23.8808 Y35.1432 
G01 X-23.7094 Y35.1773 
G01 X-22.0105 Y35.1773 
G01 X-21.8391 Y35.1432 
G01 X-21.6776 Y35.0763 
G01 X-21.5323 Y34.9792 
G01 X-21.4087 Y34.8556 
G01 X-21.3116 Y34.7103 
G01 X-21.2447 Y34.5488 
G01 X-21.2106 Y34.3774 
G01 X-21.2106 Y34.2025 
G01 X-21.2447 Y34.0311 
G01 X-21.3116 Y33.8696 
G01 X-21.4087 Y33.7243 
G01 X-21.5323 Y33.6007 
G01 X-21.6776 Y33.5036 
G01 X-21.8391 Y33.4367 
G01 X-22.0105 Y33.4026 
G00 Z3.0000  
G00 X-27.2021 Y38.5842 
G01 Z-0.1000 F250   
G01 X-28.6778 Y38.5842 F650   
G01 X-28.8296 Y38.6144 
G01 X-28.9726 Y38.6736 
G01 X-29.1013 Y38.7596 
G01 X-29.2107 Y38.8690 
G01 X-29.2967 Y38.9977 
G01 X-29.3559 Y39.1407 
G01 X-29.3861 Y39.2925 
G01 X-29.3861 Y39.4474 
G01 X-29.3559 Y39.5992 
G01 X-29.2967 Y39.7422 
G01 X-29.2107 Y39.8709 
G01 X-29.1013 Y39.9803 
G01 X-28.9726 Y40.0663 
G01 X-28.8296 Y40.1255 
G01 X-28.6778 Y40.1557 
G01 X-27.2021 Y40.1557 
G01 X-27.0503 Y40.1255 
G01 X-26.9073 Y40.0663 
G01 X-26.7786 Y39.9803 
G01 X-26.7000 Y39.9017 
G01 X-24.3338 Y39.9017 
G01 X-24.3112 Y39.9356 
G01 X-24.1876 Y40.0592 
G01 X-24.0423 Y40.1563 
G01 X-23.8808 Y40.2232 
G01 X-23.7094 Y40.2573 
G01 X-22.0105 Y40.2573 
G01 X-21.8391 Y40.2232 
G01 X-21.6776 Y40.1563 
G01 X-21.5323 Y40.0592 
G01 X-21.4087 Y39.9356 
G01 X-21.3116 Y39.7903 
G01 X-21.2447 Y39.6288 
G01 X-21.2106 Y39.4574 
G01 X-21.2106 Y39.2825 
G01 X-21.2447 Y39.1111 
G01 X-21.3116 Y38.9496 
G01 X-21.4087 Y38.8043 
G01 X-21.5323 Y38.6807 
G01 X-21.6776 Y38.5836 
G01 X-21.8391 Y38.5167 
G01 X-22.0105 Y38.4826 
G01 X-23.7094 Y38.4826 
G01 X-23.8808 Y38.5167 
G01 X-24.0423 Y38.5836 
G01 X-24.1876 Y38.6807 
G01 X-24.3112 Y38.8043 
G01 X-24.3338 Y38.8382 
G01 X-26.7000 Y38.8382 
G01 X-26.7786 Y38.7596 
G01 X-26.9073 Y38.6736 
G01 X-27.0503 Y38.6144 
G01 X-27.2021 Y38.5842 
G00 Z3.0000  
G00 X-27.2021 Y43.6642 
G01 Z-0.1000 F250   
G01 X-28.6778 Y43.6642 F650   
G01 X-28.8296 Y43.6944 
G01 X-28.9726 Y43.7536 
G01 X-29.1013 Y43.8396 
G01 X-29.2107 Y43.9490 
G01 X-29.2967 Y44.0777 
G01 X-29.3559 Y44.2207 
G01 X-29.3861 Y44.3725 
G01 X-29.3861 Y44.5274 
G01 X-29.3559 Y44.6792 
G01 X-29.2967 Y44.8222 
G01 X-29.2107 Y44.9509 
G01 X-29.1013 Y45.0603 
G01 X-28.9726 Y45.1463 
G01 X-28.8296 Y45.2055 
G01 X-28.6778 Y45.2357 
G01 X-27.2021 Y45.2357 
G01 X-27.0503 Y45.2055 
G01 X-26.9073 Y45.1463 
G01 X-26.7786 Y45.0603 
G01 X-26.7000 Y44.9817 
G01 X-24.3338 Y44.9817 
G01 X-24.3112 Y45.0156 
G01 X-24.1876 Y45.1392 
G01 X-24.0423 Y45.2363 
G01 X-23.8808 Y45.3032 
G01 X-23.7094 Y45.3373 
G01 X-22.0105 Y45.3373 
G01 X-21.8391 Y45.3032 
G01 X-21.6776 Y45.2363 
G01 X-21.5323 Y45.1392 
G01 X-21.4087 Y45.0156 
G01 X-21.3116 Y44.8703 
G01 X-21.2447 Y44.7088 
G01 X-21.2106 Y44.5374 
G01 X-21.2106 Y44.3625 
G01 X-21.2447 Y44.1911 
G01 X-21.3116 Y44.0296 
G01 X-21.4087 Y43.8843 
G01 X-21.5323 Y43.7607 
G01 X-21.6776 Y43.6636 
G01 X-21.8391 Y43.5967 
G01 X-22.0105 Y43.5626 
G01 X-23.7094 Y43.5626 
G01 X-23.8808 Y43.5967 
G01 X-24.0423 Y43.6636 
G01 X-24.1876 Y43.7607 
G01 X-24.3112 Y43.8843 
G01 X-24.3338 Y43.9182 
G01 X-26.7000 Y43.9182 
G01 X-26.7786 Y43.8396 
G01 X-26.9073 Y43.7536 
G01 X-27.0503 Y43.6944 
G01 X-27.2021 Y43.6642 
G00 Z3.0000  
G00 X-27.2021 Y46.2042 
G01 Z-0.1000 F250   
G01 X-28.6778 Y46.2042 F650   
G01 X-28.8296 Y46.2344 
G01 X-28.9726 Y46.2936 
G01 X-29.1013 Y46.3796 
G01 X-29.2107 Y46.4890 
G01 X-29.2967 Y46.6177 
G01 X-29.3559 Y46.7607 
G01 X-29.3861 Y46.9125 
G01 X-29.3861 Y47.0674 
G01 X-29.3559 Y47.2192 
G01 X-29.2967 Y47.3622 
G01 X-29.2107 Y47.4909 
G01 X-29.1013 Y47.6003 
G01 X-28.9726 Y47.6863 
G01 X-28.8296 Y47.7455 
G01 X-28.6778 Y47.7757 
G01 X-27.2021 Y47.7757 
G01 X-27.0503 Y47.7455 
G01 X-26.9073 Y47.6863 
G01 X-26.7786 Y47.6003 
G01 X-26.6692 Y47.4909 
G01 X-26.5832 Y47.3622 
G01 X-26.5240 Y47.2192 
G01 X-26.4938 Y47.0674 
G01 X-26.4938 Y46.9125 
G01 X-26.5240 Y46.7607 
G01 X-26.5832 Y46.6177 
G01 X-26.6692 Y46.4890 
G01 X-26.7786 Y46.3796 
G01 X-26.9073 Y46.2936 
G01 X-27.0503 Y46.2344 
G01 X-27.2021 Y46.2042 
G00 Z3.0000  
G00 X-27.2021 Y48.7442 
G01 Z-0.1000 F250   
G01 X-28.6778 Y48.7442 F650   
G01 X-28.8296 Y48.7744 
G01 X-28.9726 Y48.8336 
G01 X-29.1013 Y48.9196 
G01 X-29.2107 Y49.0290 
G01 X-29.2967 Y49.1577 
G01 X-29.3559 Y49.3007 
G01 X-29.3861 Y49.4525 
G01 X-29.3861 Y49.6074 
G01 X-29.3559 Y49.7592 
G01 X-29.2967 Y49.9022 
G01 X-29.2107 Y50.0309 
G01 X-29.1013 Y50.1403 
G01 X-28.9726 Y50.2263 
G01 X-28.8296 Y50.2855 
G01 X-28.6778 Y50.3157 
G01 X-27.2021 Y50.3157 
G01 X-27.0503 Y50.2855 
G01 X-26.9073 Y50.2263 
G01 X-26.7786 Y50.1403 
G01 X-26.6692 Y50.0309 
G01 X-26.5832 Y49.9022 
G01 X-26.5240 Y49.7592 
G01 X-26.4938 Y49.6074 
G01 X-26.4938 Y49.4525 
G01 X-26.5240 Y49.3007 
G01 X-26.5832 Y49.1577 
G01 X-26.6692 Y49.0290 
G01 X-26.7786 Y48.9196 
G01 X-26.9073 Y48.8336 
G01 X-27.0503 Y48.7744 
G01 X-27.2021 Y48.7442 
G00 Z3.0000  
G00 X-27.2021 Y51.2842 
G01 Z-0.1000 F250   
G01 X-28.6778 Y51.2842 F650   
G01 X-28.8296 Y51.3144 
G01 X-28.9726 Y51.3736 
G01 X-29.1013 Y51.4596 
G01 X-29.2107 Y51.5690 
G01 X-29.2967 Y51.6977 
G01 X-29.3559 Y51.8407 
G01 X-29.3861 Y51.9925 
G01 X-29.3861 Y52.1474 
G01 X-29.3559 Y52.2992 
G01 X-29.2967 Y52.4422 
G01 X-29.2107 Y52.5709 
G01 X-29.1013 Y52.6803 
G01 X-28.9726 Y52.7663 
G01 X-28.8296 Y52.8255 
G01 X-28.6778 Y52.8557 
G01 X-27.2021 Y52.8557 
G01 X-27.0503 Y52.8255 
G01 X-26.9073 Y52.7663 
G01 X-26.7786 Y52.6803 
G01 X-26.6692 Y52.5709 
G01 X-26.5832 Y52.4422 
G01 X-26.5240 Y52.2992 
G01 X-26.4938 Y52.1474 
G01 X-26.4938 Y51.9925 
G01 X-26.5240 Y51.8407 
G01 X-26.5832 Y51.6977 
G01 X-26.6692 Y51.5690 
G01 X-26.7786 Y51.4596 
G01 X-26.9073 Y51.3736 
G01 X-27.0503 Y51.3144 
G01 X-27.2021 Y51.2842 
G00 Z3.0000  
G00 X-27.2021 Y53.8242 
G01 Z-0.1000 F250   
G01 X-28.6778 Y53.8242 F650   
G01 X-28.8296 Y53.8544 
G01 X-28.9726 Y53.9136 
G01 X-29.1013 Y53.9996 
G01 X-29.2107 Y54.1090 
G01 X-29.2967 Y54.2377 
G01 X-29.3559 Y54.3807 
G01 X-29.3861 Y54.5325 
G01 X-29.3861 Y54.6874 
G01 X-29.3559 Y54.8392 
G01 X-29.2967 Y54.9822 
G01 X-29.2107 Y55.1109 
G01 X-29.1013 Y55.2203 
G01 X-28.9726 Y55.3063 
G01 X-28.8296 Y55.3655 
G01 X-28.6778 Y55.3957 
G01 X-27.2021 Y55.3957 
G01 X-27.0503 Y55.3655 
G01 X-26.9073 Y55.3063 
G01 X-26.7786 Y55.2203 
G01 X-26.6692 Y55.1109 
G01 X-26.5832 Y54.9822 
G01 X-26.5240 Y54.8392 
G01 X-26.4938 Y54.6874 
G01 X-26.4938 Y54.5325 
G01 X-26.5240 Y54.3807 
G01 X-26.5832 Y54.2377 
G01 X-26.6692 Y54.1090 
G01 X-26.7786 Y53.9996 
G01 X-26.9073 Y53.9136 
G01 X-27.0503 Y53.8544 
G01 X-27.2021 Y53.8242 
G00 Z3.0000  
G00 X-27.2021 Y56.3642 
G01 Z-0.1000 F250   
G01 X-28.6778 Y56.3642 F650   
G01 X-28.8296 Y56.3944 
G01 X-28.9726 Y56.4536 
G01 X-29.1013 Y56.5396 
G01 X-29.2107 Y56.6490 
G01 X-29.2967 Y56.7777 
G01 X-29.3559 Y56.9207 
G01 X-29.3861 Y57.0725 
G01 X-29.3861 Y57.2274 
G01 X-29.3559 Y57.3792 
G01 X-29.2967 Y57.5222 
G01 X-29.2107 Y57.6509 
G01 X-29.1013 Y57.7603 
G01 X-28.9726 Y57.8463 
G01 X-28.8296 Y57.9055 
G01 X-28.6778 Y57.9357 
G01 X-27.2021 Y57.9357 
G01 X-27.0503 Y57.9055 
G01 X-26.9073 Y57.8463 
G01 X-26.7786 Y57.7603 
G01 X-26.6692 Y57.6509 
G01 X-26.5832 Y57.5222 
G01 X-26.5240 Y57.3792 
G01 X-26.4938 Y57.2274 
G01 X-26.4938 Y57.0725 
G01 X-26.5240 Y56.9207 
G01 X-26.5832 Y56.7777 
G01 X-26.6692 Y56.6490 
G01 X-26.7786 Y56.5396 
G01 X-26.9073 Y56.4536 
G01 X-27.0503 Y56.3944 
G01 X-27.2021 Y56.3642 
G00 Z3.0000  
G00 X-34.8221 Y58.9042 
G01 Z-0.1000 F250   
G01 X-36.2978 Y58.9042 F650   
G01 X-36.4496 Y58.9344 
G01 X-36.5926 Y58.9936 
G01 X-36.7213 Y59.0796 
G01 X-36.7998 Y59.1582 
G01 X-38.8382 Y59.1582 
G01 X-38.8382 Y46.9199 
G01 X-38.8744 Y46.7847 
G01 X-38.9444 Y46.6634 
G01 X-39.0434 Y46.5644 
G01 X-39.1647 Y46.4944 
G01 X-39.2999 Y46.4582 
G01 X-39.4400 Y46.4582 
G01 X-42.3153 Y46.4582 
G01 X-42.3920 Y46.3433 
G01 X-42.5333 Y46.2020 
G01 X-42.6994 Y46.0910 
G01 X-42.8840 Y46.0146 
G01 X-43.0800 Y45.9756 
G01 X-43.2799 Y45.9756 
G01 X-43.4759 Y46.0146 
G01 X-43.6605 Y46.0910 
G01 X-43.8266 Y46.2020 
G01 X-43.9679 Y46.3433 
G01 X-44.0789 Y46.5094 
G01 X-44.1553 Y46.6940 
G01 X-44.1943 Y46.8900 
G01 X-44.1943 Y47.0899 
G01 X-44.1553 Y47.2859 
G01 X-44.0789 Y47.4705 
G01 X-43.9679 Y47.6366 
G01 X-43.8266 Y47.7779 
G01 X-43.6605 Y47.8889 
G01 X-43.4759 Y47.9653 
G01 X-43.2799 Y48.0043 
G01 X-43.0800 Y48.0043 
G01 X-42.8840 Y47.9653 
G01 X-42.6994 Y47.8889 
G01 X-42.5333 Y47.7779 
G01 X-42.3920 Y47.6366 
G01 X-42.3153 Y47.5217 
G01 X-39.9017 Y47.5217 
G01 X-39.9017 Y59.6199 
G01 X-39.9017 Y59.7600 
G01 X-39.8655 Y59.8952 
G01 X-39.7955 Y60.0165 
G01 X-39.6965 Y60.1155 
G01 X-39.5752 Y60.1855 
G01 X-39.4400 Y60.2217 
G01 X-36.7998 Y60.2217 
G01 X-36.7213 Y60.3003 
G01 X-36.5926 Y60.3863 
G01 X-36.4496 Y60.4455 
G01 X-36.2978 Y60.4757 
G01 X-34.8221 Y60.4757 
G01 X-34.6703 Y60.4455 
G01 X-34.5273 Y60.3863 
G01 X-34.3986 Y60.3003 
G01 X-34.2892 Y60.1909 
G01 X-34.2032 Y60.0622 
G01 X-34.1440 Y59.9192 
G01 X-34.1138 Y59.7674 
G01 X-34.1138 Y59.6125 
G01 X-34.1440 Y59.4607 
G01 X-34.2032 Y59.3177 
G01 X-34.2892 Y59.1890 
G01 X-34.3986 Y59.0796 
G01 X-34.5273 Y58.9936 
G01 X-34.6703 Y58.9344 
G01 X-34.8221 Y58.9042 
G00 Z3.0000  
G00 X-34.8221 Y48.7442 
G01 Z-0.1000 F250   
G01 X-36.2978 Y48.7442 F650   
G01 X-36.4496 Y48.7744 
G01 X-36.5926 Y48.8336 
G01 X-36.7213 Y48.9196 
G01 X-36.8307 Y49.0290 
G01 X-36.9167 Y49.1577 
G01 X-36.9759 Y49.3007 
G01 X-37.0061 Y49.4525 
G01 X-37.0061 Y49.6074 
G01 X-36.9759 Y49.7592 
G01 X-36.9167 Y49.9022 
G01 X-36.8307 Y50.0309 
G01 X-36.7213 Y50.1403 
G01 X-36.5926 Y50.2263 
G01 X-36.4496 Y50.2855 
G01 X-36.2978 Y50.3157 
G01 X-34.8221 Y50.3157 
G01 X-34.6703 Y50.2855 
G01 X-34.5273 Y50.2263 
G01 X-34.3986 Y50.1403 
G01 X-34.2892 Y50.0309 
G01 X-34.2032 Y49.9022 
G01 X-34.1440 Y49.7592 
G01 X-34.1138 Y49.6074 
G01 X-34.1138 Y49.4525 
G01 X-34.1440 Y49.3007 
G01 X-34.2032 Y49.1577 
G01 X-34.2892 Y49.0290 
G01 X-34.3986 Y48.9196 
G01 X-34.5273 Y48.8336 
G01 X-34.6703 Y48.7744 
G01 X-34.8221 Y48.7442 
G00 Z3.0000  
G00 X-34.8221 Y51.2842 
G01 Z-0.1000 F250   
G01 X-36.2978 Y51.2842 F650   
G01 X-36.4496 Y51.3144 
G01 X-36.5926 Y51.3736 
G01 X-36.7213 Y51.4596 
G01 X-36.8307 Y51.5690 
G01 X-36.9167 Y51.6977 
G01 X-36.9759 Y51.8407 
G01 X-37.0061 Y51.9925 
G01 X-37.0061 Y52.1474 
G01 X-36.9759 Y52.2992 
G01 X-36.9167 Y52.4422 
G01 X-36.8307 Y52.5709 
G01 X-36.7213 Y52.6803 
G01 X-36.5926 Y52.7663 
G01 X-36.4496 Y52.8255 
G01 X-36.2978 Y52.8557 
G01 X-34.8221 Y52.8557 
G01 X-34.6703 Y52.8255 
G01 X-34.5273 Y52.7663 
G01 X-34.3986 Y52.6803 
G01 X-34.2892 Y52.5709 
G01 X-34.2032 Y52.4422 
G01 X-34.1440 Y52.2992 
G01 X-34.1138 Y52.1474 
G01 X-34.1138 Y51.9925 
G01 X-34.1440 Y51.8407 
G01 X-34.2032 Y51.6977 
G01 X-34.2892 Y51.5690 
G01 X-34.3986 Y51.4596 
G01 X-34.5273 Y51.3736 
G01 X-34.6703 Y51.3144 
G01 X-34.8221 Y51.2842 
G00 Z3.0000  
G00 X-34.8221 Y46.2042 
G01 Z-0.1000 F250   
G01 X-36.2978 Y46.2042 F650   
G01 X-36.4496 Y46.2344 
G01 X-36.5926 Y46.2936 
G01 X-36.7213 Y46.3796 
G01 X-36.8307 Y46.4890 
G01 X-36.9167 Y46.6177 
G01 X-36.9759 Y46.7607 
G01 X-37.0061 Y46.9125 
G01 X-37.0061 Y47.0674 
G01 X-36.9759 Y47.2192 
G01 X-36.9167 Y47.3622 
G01 X-36.8307 Y47.4909 
G01 X-36.7213 Y47.6003 
G01 X-36.5926 Y47.6863 
G01 X-36.4496 Y47.7455 
G01 X-36.2978 Y47.7757 
G01 X-34.8221 Y47.7757 
G01 X-34.6703 Y47.7455 
G01 X-34.5273 Y47.6863 
G01 X-34.3986 Y47.6003 
G01 X-34.2892 Y47.4909 
G01 X-34.2032 Y47.3622 
G01 X-34.1440 Y47.2192 
G01 X-34.1138 Y47.0674 
G01 X-34.1138 Y46.9125 
G01 X-34.1440 Y46.7607 
G01 X-34.2032 Y46.6177 
G01 X-34.2892 Y46.4890 
G01 X-34.3986 Y46.3796 
G01 X-34.5273 Y46.2936 
G01 X-34.6703 Y46.2344 
G01 X-34.8221 Y46.2042 
G00 Z3.0000  
G00 X-34.8221 Y43.6642 
G01 Z-0.1000 F250   
G01 X-36.2978 Y43.6642 F650   
G01 X-36.4496 Y43.6944 
G01 X-36.5926 Y43.7536 
G01 X-36.7213 Y43.8396 
G01 X-36.7999 Y43.9182 
G01 X-42.3153 Y43.9182 
G01 X-42.3920 Y43.8033 
G01 X-42.5333 Y43.6620 
G01 X-42.6994 Y43.5510 
G01 X-42.8840 Y43.4746 
G01 X-43.0800 Y43.4356 
G01 X-43.2799 Y43.4356 
G01 X-43.4759 Y43.4746 
G01 X-43.6605 Y43.5510 
G01 X-43.8266 Y43.6620 
G01 X-43.9679 Y43.8033 
G01 X-44.0789 Y43.9694 
G01 X-44.1553 Y44.1540 
G01 X-44.1943 Y44.3500 
G01 X-44.1943 Y44.5499 
G01 X-44.1553 Y44.7459 
G01 X-44.0789 Y44.9305 
G01 X-43.9679 Y45.0966 
G01 X-43.8266 Y45.2379 
G01 X-43.6605 Y45.3489 
G01 X-43.4759 Y45.4253 
G01 X-43.2799 Y45.4643 
G01 X-43.0800 Y45.4643 
G01 X-42.8840 Y45.4253 
G01 X-42.6994 Y45.3489 
G01 X-42.5333 Y45.2379 
G01 X-42.3920 Y45.0966 
G01 X-42.3153 Y44.9817 
G01 X-36.7999 Y44.9817 
G01 X-36.7213 Y45.0603 
G01 X-36.5926 Y45.1463 
G01 X-36.4496 Y45.2055 
G01 X-36.2978 Y45.2357 
G01 X-34.8221 Y45.2357 
G01 X-34.6703 Y45.2055 
G01 X-34.5273 Y45.1463 
G01 X-34.3986 Y45.0603 
G01 X-34.2892 Y44.9509 
G01 X-34.2032 Y44.8222 
G01 X-34.1440 Y44.6792 
G01 X-34.1138 Y44.5274 
G01 X-34.1138 Y44.3725 
G01 X-34.1440 Y44.2207 
G01 X-34.2032 Y44.0777 
G01 X-34.2892 Y43.9490 
G01 X-34.3986 Y43.8396 
G01 X-34.5273 Y43.7536 
G01 X-34.6703 Y43.6944 
G01 X-34.8221 Y43.6642 
G00 Z3.0000  
G00 X-34.8221 Y56.3642 
G01 Z-0.1000 F250   
G01 X-36.2978 Y56.3642 F650   
G01 X-36.4496 Y56.3944 
G01 X-36.5926 Y56.4536 
G01 X-36.7213 Y56.5396 
G01 X-36.8307 Y56.6490 
G01 X-36.9167 Y56.7777 
G01 X-36.9759 Y56.9207 
G01 X-37.0061 Y57.0725 
G01 X-37.0061 Y57.2274 
G01 X-36.9759 Y57.3792 
G01 X-36.9167 Y57.5222 
G01 X-36.8307 Y57.6509 
G01 X-36.7213 Y57.7603 
G01 X-36.5926 Y57.8463 
G01 X-36.4496 Y57.9055 
G01 X-36.2978 Y57.9357 
G01 X-34.8221 Y57.9357 
G01 X-34.6703 Y57.9055 
G01 X-34.5273 Y57.8463 
G01 X-34.3986 Y57.7603 
G01 X-34.2892 Y57.6509 
G01 X-34.2032 Y57.5222 
G01 X-34.1440 Y57.3792 
G01 X-34.1138 Y57.2274 
G01 X-34.1138 Y57.0725 
G01 X-34.1440 Y56.9207 
G01 X-34.2032 Y56.7777 
G01 X-34.2892 Y56.6490 
G01 X-34.3986 Y56.5396 
G01 X-34.5273 Y56.4536 
G01 X-34.6703 Y56.3944 
G01 X-34.8221 Y56.3642 
G00 Z3.0000  
G00 X-34.8221 Y53.8242 
G01 Z-0.1000 F250   
G01 X-36.2978 Y53.8242 F650   
G01 X-36.4496 Y53.8544 
G01 X-36.5926 Y53.9136 
G01 X-36.7213 Y53.9996 
G01 X-36.8307 Y54.1090 
G01 X-36.9167 Y54.2377 
G01 X-36.9759 Y54.3807 
G01 X-37.0061 Y54.5325 
G01 X-37.0061 Y54.6874 
G01 X-36.9759 Y54.8392 
G01 X-36.9167 Y54.9822 
G01 X-36.8307 Y55.1109 
G01 X-36.7213 Y55.2203 
G01 X-36.5926 Y55.3063 
G01 X-36.4496 Y55.3655 
G01 X-36.2978 Y55.3957 
G01 X-34.8221 Y55.3957 
G01 X-34.6703 Y55.3655 
G01 X-34.5273 Y55.3063 
G01 X-34.3986 Y55.2203 
G01 X-34.2892 Y55.1109 
G01 X-34.2032 Y54.9822 
G01 X-34.1440 Y54.8392 
G01 X-34.1138 Y54.6874 
G01 X-34.1138 Y54.5325 
G01 X-34.1440 Y54.3807 
G01 X-34.2032 Y54.2377 
G01 X-34.2892 Y54.1090 
G01 X-34.3986 Y53.9996 
G01 X-34.5273 Y53.9136 
G01 X-34.6703 Y53.8544 
G01 X-34.8221 Y53.8242 
G00 Z3.0000  
G00 X-34.8221 Y38.5842 
G01 Z-0.1000 F250   
G01 X-36.2978 Y38.5842 F650   
G01 X-36.4496 Y38.6144 
G01 X-36.5926 Y38.6736 
G01 X-36.7213 Y38.7596 
G01 X-36.7999 Y38.8382 
G01 X-42.3153 Y38.8382 
G01 X-42.3920 Y38.7233 
G01 X-42.5333 Y38.5820 
G01 X-42.6994 Y38.4710 
G01 X-42.8840 Y38.3946 
G01 X-43.0800 Y38.3556 
G01 X-43.2799 Y38.3556 
G01 X-43.4759 Y38.3946 
G01 X-43.6605 Y38.4710 
G01 X-43.8266 Y38.5820 
G01 X-43.9679 Y38.7233 
G01 X-44.0789 Y38.8894 
G01 X-44.1553 Y39.0740 
G01 X-44.1943 Y39.2700 
G01 X-44.1943 Y39.4699 
G01 X-44.1553 Y39.6659 
G01 X-44.0789 Y39.8505 
G01 X-43.9679 Y40.0166 
G01 X-43.8266 Y40.1579 
G01 X-43.6605 Y40.2689 
G01 X-43.4759 Y40.3453 
G01 X-43.2799 Y40.3843 
G01 X-43.0800 Y40.3843 
G01 X-42.8840 Y40.3453 
G01 X-42.6994 Y40.2689 
G01 X-42.5333 Y40.1579 
G01 X-42.3920 Y40.0166 
G01 X-42.3153 Y39.9017 
G01 X-36.7999 Y39.9017 
G01 X-36.7213 Y39.9803 
G01 X-36.5926 Y40.0663 
G01 X-36.4496 Y40.1255 
G01 X-36.2978 Y40.1557 
G01 X-34.8221 Y40.1557 
G01 X-34.6703 Y40.1255 
G01 X-34.5273 Y40.0663 
G01 X-34.3986 Y39.9803 
G01 X-34.2892 Y39.8709 
G01 X-34.2032 Y39.7422 
G01 X-34.1440 Y39.5992 
G01 X-34.1138 Y39.4474 
G01 X-34.1138 Y39.2925 
G01 X-34.1440 Y39.1407 
G01 X-34.2032 Y38.9977 
G01 X-34.2892 Y38.8690 
G01 X-34.3986 Y38.7596 
G01 X-34.5273 Y38.6736 
G01 X-34.6703 Y38.6144 
G01 X-34.8221 Y38.5842 
G00 Z3.0000  
G00 X-64.3494 Y55.4973 
G01 Z-0.1000 F250   
G01 X-62.6505 Y55.4973 F650   
G01 X-62.4791 Y55.4632 
G01 X-62.3176 Y55.3963 
G01 X-62.1723 Y55.2992 
G01 X-62.0487 Y55.1756 
G01 X-62.0261 Y55.1417 
G01 X-59.2846 Y55.1417 
G01 X-59.2079 Y55.2566 
G01 X-59.0666 Y55.3979 
G01 X-58.9517 Y55.4746 
G01 X-58.9517 Y63.5700 
G01 X-58.9155 Y63.7052 
G01 X-58.8455 Y63.8265 
G01 X-58.7465 Y63.9255 
G01 X-58.6252 Y63.9955 
G01 X-58.4900 Y64.0317 
G01 X-58.3499 Y64.0317 
G01 X-27.8699 Y64.0317 
G01 X-27.7347 Y63.9955 
G01 X-27.6134 Y63.9255 
G01 X-27.5144 Y63.8265 
G01 X-27.4444 Y63.7052 
G01 X-27.4082 Y63.5700 
G01 X-27.4082 Y63.4299 
G01 X-27.4082 Y60.4757 
G01 X-27.2021 Y60.4757 
G01 X-27.0503 Y60.4455 
G01 X-26.9073 Y60.3863 
G01 X-26.7786 Y60.3003 
G01 X-26.6692 Y60.1909 
G01 X-26.5832 Y60.0622 
G01 X-26.5240 Y59.9192 
G01 X-26.4938 Y59.7674 
G01 X-26.4938 Y59.6125 
G01 X-26.5240 Y59.4607 
G01 X-26.5832 Y59.3177 
G01 X-26.6692 Y59.1890 
G01 X-26.7786 Y59.0796 
G01 X-26.9073 Y58.9936 
G01 X-27.0503 Y58.9344 
G01 X-27.2021 Y58.9042 
G01 X-28.6778 Y58.9042 
G01 X-28.8296 Y58.9344 
G01 X-28.9726 Y58.9936 
G01 X-29.1013 Y59.0796 
G01 X-29.2107 Y59.1890 
G01 X-29.2967 Y59.3177 
G01 X-29.3559 Y59.4607 
G01 X-29.3861 Y59.6125 
G01 X-29.3861 Y59.7674 
G01 X-29.3559 Y59.9192 
G01 X-29.2967 Y60.0622 
G01 X-29.2107 Y60.1909 
G01 X-29.1013 Y60.3003 
G01 X-28.9726 Y60.3863 
G01 X-28.8296 Y60.4455 
G01 X-28.6778 Y60.4757 
G01 X-28.4717 Y60.4757 
G01 X-28.4717 Y62.9682 
G01 X-57.8882 Y62.9682 
G01 X-57.8882 Y55.4746 
G01 X-57.7733 Y55.3979 
G01 X-57.6320 Y55.2566 
G01 X-57.5210 Y55.0905 
G01 X-57.4446 Y54.9059 
G01 X-57.4056 Y54.7099 
G01 X-57.4056 Y54.5100 
G01 X-57.4446 Y54.3140 
G01 X-57.5210 Y54.1294 
G01 X-57.6320 Y53.9633 
G01 X-57.7733 Y53.8220 
G01 X-57.9394 Y53.7110 
G01 X-58.1240 Y53.6346 
G01 X-58.3200 Y53.5956 
G01 X-58.5199 Y53.5956 
G01 X-58.7159 Y53.6346 
G01 X-58.9005 Y53.7110 
G01 X-59.0666 Y53.8220 
G01 X-59.2079 Y53.9633 
G01 X-59.2846 Y54.0782 
G01 X-62.0261 Y54.0782 
G01 X-62.0487 Y54.0443 
G01 X-62.1723 Y53.9207 
G01 X-62.3176 Y53.8236 
G01 X-62.4791 Y53.7567 
G01 X-62.6505 Y53.7226 
G01 X-64.3494 Y53.7226 
G01 X-64.5208 Y53.7567 
G01 X-64.6823 Y53.8236 
G01 X-64.8276 Y53.9207 
G01 X-64.9512 Y54.0443 
G01 X-65.0483 Y54.1896 
G01 X-65.1152 Y54.3511 
G01 X-65.1493 Y54.5225 
G01 X-65.1493 Y54.6974 
G01 X-65.1152 Y54.8688 
G01 X-65.0483 Y55.0303 
G01 X-64.9512 Y55.1756 
G01 X-64.8276 Y55.2992 
G01 X-64.6823 Y55.3963 
G01 X-64.5208 Y55.4632 
G01 X-64.3494 Y55.4973 
G00 Z3.0000  
G00 X-59.4343 Y21.4900 
G01 Z-0.1000 F250   
G01 X-59.4343 Y21.6899 F650   
G01 X-59.3953 Y21.8859 
G01 X-59.3189 Y22.0705 
G01 X-59.2079 Y22.2366 
G01 X-59.0666 Y22.3779 
G01 X-58.9005 Y22.4889 
G01 X-58.7159 Y22.5653 
G01 X-58.5199 Y22.6043 
G01 X-58.3200 Y22.6043 
G01 X-58.1240 Y22.5653 
G01 X-57.9394 Y22.4889 
G01 X-57.7733 Y22.3779 
G01 X-57.6320 Y22.2366 
G01 X-57.5210 Y22.0705 
G01 X-57.4446 Y21.8859 
G01 X-57.4056 Y21.6899 
G01 X-57.4056 Y21.4900 
G01 X-57.4446 Y21.2940 
G01 X-57.5210 Y21.1094 
G01 X-57.6320 Y20.9433 
G01 X-57.7733 Y20.8020 
G01 X-57.9394 Y20.6910 
G01 X-58.1240 Y20.6146 
G01 X-58.3200 Y20.5756 
G01 X-58.5199 Y20.5756 
G01 X-58.7159 Y20.6146 
G01 X-58.9005 Y20.6910 
G01 X-59.0666 Y20.8020 
G01 X-59.2079 Y20.9433 
G01 X-59.3189 Y21.1094 
G01 X-59.3953 Y21.2940 
G01 X-59.4343 Y21.4900 
G00 Z3.0000  
G00 X-59.4343 Y24.0300 
G01 Z-0.1000 F250   
G01 X-59.4343 Y24.2299 F650   
G01 X-59.3953 Y24.4259 
G01 X-59.3189 Y24.6105 
G01 X-59.2079 Y24.7766 
G01 X-59.0666 Y24.9179 
G01 X-58.9005 Y25.0289 
G01 X-58.7159 Y25.1053 
G01 X-58.5199 Y25.1443 
G01 X-58.3200 Y25.1443 
G01 X-58.1240 Y25.1053 
G01 X-57.9394 Y25.0289 
G01 X-57.7733 Y24.9179 
G01 X-57.6320 Y24.7766 
G01 X-57.5210 Y24.6105 
G01 X-57.4446 Y24.4259 
G01 X-57.4056 Y24.2299 
G01 X-57.4056 Y24.0300 
G01 X-57.4446 Y23.8340 
G01 X-57.5210 Y23.6494 
G01 X-57.6320 Y23.4833 
G01 X-57.7733 Y23.3420 
G01 X-57.9394 Y23.2310 
G01 X-58.1240 Y23.1546 
G01 X-58.3200 Y23.1156 
G01 X-58.5199 Y23.1156 
G01 X-58.7159 Y23.1546 
G01 X-58.9005 Y23.2310 
G01 X-59.0666 Y23.3420 
G01 X-59.2079 Y23.4833 
G01 X-59.3189 Y23.6494 
G01 X-59.3953 Y23.8340 
G01 X-59.4343 Y24.0300 
G00 Z3.0000  
G00 X-59.4343 Y26.5700 
G01 Z-0.1000 F250   
G01 X-59.4343 Y26.7699 F650   
G01 X-59.3953 Y26.9659 
G01 X-59.3189 Y27.1505 
G01 X-59.2079 Y27.3166 
G01 X-59.0666 Y27.4579 
G01 X-58.9005 Y27.5689 
G01 X-58.7159 Y27.6453 
G01 X-58.5199 Y27.6843 
G01 X-58.3200 Y27.6843 
G01 X-58.1240 Y27.6453 
G01 X-57.9394 Y27.5689 
G01 X-57.7733 Y27.4579 
G01 X-57.6320 Y27.3166 
G01 X-57.5210 Y27.1505 
G01 X-57.4446 Y26.9659 
G01 X-57.4056 Y26.7699 
G01 X-57.4056 Y26.5700 
G01 X-57.4446 Y26.3740 
G01 X-57.5210 Y26.1894 
G01 X-57.6320 Y26.0233 
G01 X-57.7733 Y25.8820 
G01 X-57.9394 Y25.7710 
G01 X-58.1240 Y25.6946 
G01 X-58.3200 Y25.6556 
G01 X-58.5199 Y25.6556 
G01 X-58.7159 Y25.6946 
G01 X-58.9005 Y25.7710 
G01 X-59.0666 Y25.8820 
G01 X-59.2079 Y26.0233 
G01 X-59.3189 Y26.1894 
G01 X-59.3953 Y26.3740 
G01 X-59.4343 Y26.5700 
G00 Z3.0000  
G00 X-59.4343 Y29.1100 
G01 Z-0.1000 F250   
G01 X-59.4343 Y29.3099 F650   
G01 X-59.3953 Y29.5059 
G01 X-59.3189 Y29.6905 
G01 X-59.2079 Y29.8566 
G01 X-59.0666 Y29.9979 
G01 X-58.9005 Y30.1089 
G01 X-58.7159 Y30.1853 
G01 X-58.5199 Y30.2243 
G01 X-58.3200 Y30.2243 
G01 X-58.1240 Y30.1853 
G01 X-57.9394 Y30.1089 
G01 X-57.7733 Y29.9979 
G01 X-57.6320 Y29.8566 
G01 X-57.5210 Y29.6905 
G01 X-57.4446 Y29.5059 
G01 X-57.4056 Y29.3099 
G01 X-57.4056 Y29.1100 
G01 X-57.4446 Y28.9140 
G01 X-57.5210 Y28.7294 
G01 X-57.6320 Y28.5633 
G01 X-57.7733 Y28.4220 
G01 X-57.9394 Y28.3110 
G01 X-58.1240 Y28.2346 
G01 X-58.3200 Y28.1956 
G01 X-58.5199 Y28.1956 
G01 X-58.7159 Y28.2346 
G01 X-58.9005 Y28.3110 
G01 X-59.0666 Y28.4220 
G01 X-59.2079 Y28.5633 
G01 X-59.3189 Y28.7294 
G01 X-59.3953 Y28.9140 
G01 X-59.4343 Y29.1100 
G00 Z3.0000  
G00 X-59.2079 Y32.3966 
G01 Z-0.1000 F250   
G01 X-59.0666 Y32.5379 F650   
G01 X-58.9005 Y32.6489 
G01 X-58.7159 Y32.7253 
G01 X-58.5199 Y32.7643 
G01 X-58.3200 Y32.7643 
G01 X-58.1240 Y32.7253 
G01 X-57.9394 Y32.6489 
G01 X-57.7733 Y32.5379 
G01 X-57.6320 Y32.3966 
G01 X-57.5210 Y32.2305 
G01 X-57.4446 Y32.0459 
G01 X-57.4056 Y31.8499 
G01 X-57.4056 Y31.6500 
G01 X-57.4446 Y31.4540 
G01 X-57.5210 Y31.2694 
G01 X-57.6320 Y31.1033 
G01 X-57.7733 Y30.9620 
G01 X-57.9394 Y30.8510 
G01 X-58.1240 Y30.7746 
G01 X-58.3200 Y30.7356 
G01 X-58.5199 Y30.7356 
G01 X-58.7159 Y30.7746 
G01 X-58.9005 Y30.8510 
G01 X-59.0666 Y30.9620 
G01 X-59.2079 Y31.1033 
G01 X-59.2847 Y31.2182 
G01 X-64.8400 Y31.2182 
G01 X-64.9752 Y31.2544 
G01 X-65.0965 Y31.3244 
G01 X-65.1955 Y31.4234 
G01 X-66.4655 Y32.6934 
G01 X-66.5355 Y32.8147 
G01 X-66.5717 Y32.9499 
G01 X-66.5717 Y33.0900 
G01 X-66.5717 Y37.2126 
G01 X-66.8894 Y37.2126 
G01 X-67.0608 Y37.2467 
G01 X-67.2223 Y37.3136 
G01 X-67.3676 Y37.4107 
G01 X-67.4912 Y37.5343 
G01 X-67.5883 Y37.6796 
G01 X-67.6552 Y37.8411 
G01 X-67.6893 Y38.0125 
G01 X-67.6893 Y38.1874 
G01 X-67.6552 Y38.3588 
G01 X-67.5883 Y38.5203 
G01 X-67.4912 Y38.6656 
G01 X-67.3676 Y38.7892 
G01 X-67.2223 Y38.8863 
G01 X-67.0608 Y38.9532 
G01 X-66.8894 Y38.9873 
G01 X-65.1905 Y38.9873 
G01 X-65.0191 Y38.9532 
G01 X-64.8576 Y38.8863 
G01 X-64.7123 Y38.7892 
G01 X-64.5887 Y38.6656 
G01 X-64.4916 Y38.5203 
G01 X-64.4247 Y38.3588 
G01 X-64.3906 Y38.1874 
G01 X-64.3906 Y38.0125 
G01 X-64.4247 Y37.8411 
G01 X-64.4916 Y37.6796 
G01 X-64.5887 Y37.5343 
G01 X-64.7123 Y37.4107 
G01 X-64.8576 Y37.3136 
G01 X-65.0191 Y37.2467 
G01 X-65.1905 Y37.2126 
G01 X-65.5082 Y37.2126 
G01 X-65.5082 Y33.2403 
G01 X-64.5496 Y32.2817 
G01 X-59.2847 Y32.2817 
G01 X-59.2079 Y32.3966 
G00 Z3.0000  
G00 X-59.4343 Y36.7300 
G01 Z-0.1000 F250   
G01 X-59.4343 Y36.9299 F650   
G01 X-59.3953 Y37.1259 
G01 X-59.3189 Y37.3105 
G01 X-59.2079 Y37.4766 
G01 X-59.0666 Y37.6179 
G01 X-58.9005 Y37.7289 
G01 X-58.7159 Y37.8053 
G01 X-58.5199 Y37.8443 
G01 X-58.3200 Y37.8443 
G01 X-58.1240 Y37.8053 
G01 X-57.9394 Y37.7289 
G01 X-57.7733 Y37.6179 
G01 X-57.6320 Y37.4766 
G01 X-57.5210 Y37.3105 
G01 X-57.4446 Y37.1259 
G01 X-57.4056 Y36.9299 
G01 X-57.4056 Y36.7300 
G01 X-57.4446 Y36.5340 
G01 X-57.5210 Y36.3494 
G01 X-57.6320 Y36.1833 
G01 X-57.7733 Y36.0420 
G01 X-57.9394 Y35.9310 
G01 X-58.1240 Y35.8546 
G01 X-58.3200 Y35.8156 
G01 X-58.5199 Y35.8156 
G01 X-58.7159 Y35.8546 
G01 X-58.9005 Y35.9310 
G01 X-59.0666 Y36.0420 
G01 X-59.2079 Y36.1833 
G01 X-59.3189 Y36.3494 
G01 X-59.3953 Y36.5340 
G01 X-59.4343 Y36.7300 
G00 Z3.0000  
G00 X-59.4343 Y39.2700 
G01 Z-0.1000 F250   
G01 X-59.4343 Y39.4699 F650   
G01 X-59.3953 Y39.6659 
G01 X-59.3189 Y39.8505 
G01 X-59.2079 Y40.0166 
G01 X-59.0666 Y40.1579 
G01 X-58.9005 Y40.2689 
G01 X-58.7159 Y40.3453 
G01 X-58.5199 Y40.3843 
G01 X-58.3200 Y40.3843 
G01 X-58.1240 Y40.3453 
G01 X-57.9394 Y40.2689 
G01 X-57.7733 Y40.1579 
G01 X-57.6320 Y40.0166 
G01 X-57.5210 Y39.8505 
G01 X-57.4446 Y39.6659 
G01 X-57.4056 Y39.4699 
G01 X-57.4056 Y39.2700 
G01 X-57.4446 Y39.0740 
G01 X-57.5210 Y38.8894 
G01 X-57.6320 Y38.7233 
G01 X-57.7733 Y38.5820 
G01 X-57.9394 Y38.4710 
G01 X-58.1240 Y38.3946 
G01 X-58.3200 Y38.3556 
G01 X-58.5199 Y38.3556 
G01 X-58.7159 Y38.3946 
G01 X-58.9005 Y38.4710 
G01 X-59.0666 Y38.5820 
G01 X-59.2079 Y38.7233 
G01 X-59.3189 Y38.8894 
G01 X-59.3953 Y39.0740 
G01 X-59.4343 Y39.2700 
G00 Z3.0000  
G00 X-59.4343 Y41.8100 
G01 Z-0.1000 F250   
G01 X-59.4343 Y42.0099 F650   
G01 X-59.3953 Y42.2059 
G01 X-59.3189 Y42.3905 
G01 X-59.2079 Y42.5566 
G01 X-59.0666 Y42.6979 
G01 X-58.9005 Y42.8089 
G01 X-58.7159 Y42.8853 
G01 X-58.5199 Y42.9243 
G01 X-58.3200 Y42.9243 
G01 X-58.1240 Y42.8853 
G01 X-57.9394 Y42.8089 
G01 X-57.7733 Y42.6979 
G01 X-57.6320 Y42.5566 
G01 X-57.5210 Y42.3905 
G01 X-57.4446 Y42.2059 
G01 X-57.4056 Y42.0099 
G01 X-57.4056 Y41.8100 
G01 X-57.4446 Y41.6140 
G01 X-57.5210 Y41.4294 
G01 X-57.6320 Y41.2633 
G01 X-57.7733 Y41.1220 
G01 X-57.9394 Y41.0110 
G01 X-58.1240 Y40.9346 
G01 X-58.3200 Y40.8956 
G01 X-58.5199 Y40.8956 
G01 X-58.7159 Y40.9346 
G01 X-58.9005 Y41.0110 
G01 X-59.0666 Y41.1220 
G01 X-59.2079 Y41.2633 
G01 X-59.3189 Y41.4294 
G01 X-59.3953 Y41.6140 
G01 X-59.4343 Y41.8100 
G00 Z3.0000  
G00 X-59.4343 Y44.3500 
G01 Z-0.1000 F250   
G01 X-59.4343 Y44.5499 F650   
G01 X-59.3953 Y44.7459 
G01 X-59.3189 Y44.9305 
G01 X-59.2079 Y45.0966 
G01 X-59.0666 Y45.2379 
G01 X-58.9005 Y45.3489 
G01 X-58.7159 Y45.4253 
G01 X-58.5199 Y45.4643 
G01 X-58.3200 Y45.4643 
G01 X-58.1240 Y45.4253 
G01 X-57.9394 Y45.3489 
G01 X-57.7733 Y45.2379 
G01 X-57.6320 Y45.0966 
G01 X-57.5210 Y44.9305 
G01 X-57.4446 Y44.7459 
G01 X-57.4056 Y44.5499 
G01 X-57.4056 Y44.3500 
G01 X-57.4446 Y44.1540 
G01 X-57.5210 Y43.9694 
G01 X-57.6320 Y43.8033 
G01 X-57.7733 Y43.6620 
G01 X-57.9394 Y43.5510 
G01 X-58.1240 Y43.4746 
G01 X-58.3200 Y43.4356 
G01 X-58.5199 Y43.4356 
G01 X-58.7159 Y43.4746 
G01 X-58.9005 Y43.5510 
G01 X-59.0666 Y43.6620 
G01 X-59.2079 Y43.8033 
G01 X-59.3189 Y43.9694 
G01 X-59.3953 Y44.1540 
G01 X-59.4343 Y44.3500 
G00 Z3.0000  
G00 X-59.4343 Y49.4300 
G01 Z-0.1000 F250   
G01 X-59.4343 Y49.6299 F650   
G01 X-59.3953 Y49.8259 
G01 X-59.3189 Y50.0105 
G01 X-59.2079 Y50.1766 
G01 X-59.0666 Y50.3179 
G01 X-58.9005 Y50.4289 
G01 X-58.7159 Y50.5053 
G01 X-58.5199 Y50.5443 
G01 X-58.3200 Y50.5443 
G01 X-58.1240 Y50.5053 
G01 X-57.9394 Y50.4289 
G01 X-57.7733 Y50.3179 
G01 X-57.6320 Y50.1766 
G01 X-57.5210 Y50.0105 
G01 X-57.4446 Y49.8259 
G01 X-57.4056 Y49.6299 
G01 X-57.4056 Y49.4300 
G01 X-57.4446 Y49.2340 
G01 X-57.5210 Y49.0494 
G01 X-57.6320 Y48.8833 
G01 X-57.7733 Y48.7420 
G01 X-57.9394 Y48.6310 
G01 X-58.1240 Y48.5546 
G01 X-58.3200 Y48.5156 
G01 X-58.5199 Y48.5156 
G01 X-58.7159 Y48.5546 
G01 X-58.9005 Y48.6310 
G01 X-59.0666 Y48.7420 
G01 X-59.2079 Y48.8833 
G01 X-59.3189 Y49.0494 
G01 X-59.3953 Y49.2340 
G01 X-59.4343 Y49.4300 
G00 Z3.0000  
G00 X-44.1943 Y18.9500 
G01 Z-0.1000 F250   
G01 X-44.1943 Y19.1499 F650   
G01 X-44.1553 Y19.3459 
G01 X-44.0789 Y19.5305 
G01 X-43.9679 Y19.6966 
G01 X-43.8266 Y19.8379 
G01 X-43.6605 Y19.9489 
G01 X-43.4759 Y20.0253 
G01 X-43.2799 Y20.0643 
G01 X-43.0800 Y20.0643 
G01 X-42.8840 Y20.0253 
G01 X-42.6994 Y19.9489 
G01 X-42.5333 Y19.8379 
G01 X-42.3920 Y19.6966 
G01 X-42.3153 Y19.5817 
G01 X-31.9538 Y19.5817 
G01 X-31.9312 Y19.6156 
G01 X-31.8076 Y19.7392 
G01 X-31.6623 Y19.8363 
G01 X-31.5008 Y19.9032 
G01 X-31.3294 Y19.9373 
G01 X-29.6305 Y19.9373 
G01 X-29.4591 Y19.9032 
G01 X-29.2976 Y19.8363 
G01 X-29.1523 Y19.7392 
G01 X-29.0287 Y19.6156 
G01 X-28.9316 Y19.4703 
G01 X-28.8647 Y19.3088 
G01 X-28.8306 Y19.1374 
G01 X-28.8306 Y18.9625 
G01 X-28.8647 Y18.7911 
G01 X-28.9316 Y18.6296 
G01 X-29.0287 Y18.4843 
G01 X-29.1523 Y18.3607 
G01 X-29.2976 Y18.2636 
G01 X-29.4591 Y18.1967 
G01 X-29.6305 Y18.1626 
G01 X-31.3294 Y18.1626 
G01 X-31.5008 Y18.1967 
G01 X-31.6623 Y18.2636 
G01 X-31.8076 Y18.3607 
G01 X-31.9312 Y18.4843 
G01 X-31.9538 Y18.5182 
G01 X-42.3153 Y18.5182 
G01 X-42.3920 Y18.4033 
G01 X-42.5333 Y18.2620 
G01 X-42.6994 Y18.1510 
G01 X-42.8840 Y18.0746 
G01 X-43.0800 Y18.0356 
G01 X-43.2799 Y18.0356 
G01 X-43.4759 Y18.0746 
G01 X-43.6605 Y18.1510 
G01 X-43.8266 Y18.2620 
G01 X-43.9679 Y18.4033 
G01 X-44.0789 Y18.5694 
G01 X-44.1553 Y18.7540 
G01 X-44.1943 Y18.9500 
G00 Z3.0000  
G00 X-44.1943 Y26.5700 
G01 Z-0.1000 F250   
G01 X-44.1943 Y26.7699 F650   
G01 X-44.1553 Y26.9659 
G01 X-44.0789 Y27.1505 
G01 X-43.9679 Y27.3166 
G01 X-43.8266 Y27.4579 
G01 X-43.6605 Y27.5689 
G01 X-43.4759 Y27.6453 
G01 X-43.2799 Y27.6843 
G01 X-43.0800 Y27.6843 
G01 X-42.8840 Y27.6453 
G01 X-42.6994 Y27.5689 
G01 X-42.5333 Y27.4579 
G01 X-42.3920 Y27.3166 
G01 X-42.3153 Y27.2017 
G01 X-36.7599 Y27.2017 
G01 X-36.6247 Y27.1655 
G01 X-36.5034 Y27.0955 
G01 X-36.4044 Y26.9965 
G01 X-36.3344 Y26.8752 
G01 X-36.2982 Y26.7400 
G01 X-36.2982 Y26.5999 
G01 X-36.2982 Y24.6617 
G01 X-31.9538 Y24.6617 
G01 X-31.9312 Y24.6956 
G01 X-31.8076 Y24.8192 
G01 X-31.6623 Y24.9163 
G01 X-31.5008 Y24.9832 
G01 X-31.3294 Y25.0173 
G01 X-29.6305 Y25.0173 
G01 X-29.4591 Y24.9832 
G01 X-29.2976 Y24.9163 
G01 X-29.1523 Y24.8192 
G01 X-29.0287 Y24.6956 
G01 X-28.9316 Y24.5503 
G01 X-28.8647 Y24.3888 
G01 X-28.8306 Y24.2174 
G01 X-28.8306 Y24.0425 
G01 X-28.8647 Y23.8711 
G01 X-28.9316 Y23.7096 
G01 X-29.0287 Y23.5643 
G01 X-29.1523 Y23.4407 
G01 X-29.2976 Y23.3436 
G01 X-29.4591 Y23.2767 
G01 X-29.6305 Y23.2426 
G01 X-31.3294 Y23.2426 
G01 X-31.5008 Y23.2767 
G01 X-31.6623 Y23.3436 
G01 X-31.8076 Y23.4407 
G01 X-31.9312 Y23.5643 
G01 X-31.9538 Y23.5982 
G01 X-36.7599 Y23.5982 
G01 X-36.9000 Y23.5982 
G01 X-37.0352 Y23.6344 
G01 X-37.1565 Y23.7044 
G01 X-37.2555 Y23.8034 
G01 X-37.3255 Y23.9247 
G01 X-37.3617 Y24.0599 
G01 X-37.3617 Y26.1382 
G01 X-42.3153 Y26.1382 
G01 X-42.3920 Y26.0233 
G01 X-42.5333 Y25.8820 
G01 X-42.6994 Y25.7710 
G01 X-42.8840 Y25.6946 
G01 X-43.0800 Y25.6556 
G01 X-43.2799 Y25.6556 
G01 X-43.4759 Y25.6946 
G01 X-43.6605 Y25.7710 
G01 X-43.8266 Y25.8820 
G01 X-43.9679 Y26.0233 
G01 X-44.0789 Y26.1894 
G01 X-44.1553 Y26.3740 
G01 X-44.1943 Y26.5700 
G00 Z3.0000  
G00 X-44.1943 Y31.6500 
G01 Z-0.1000 F250   
G01 X-44.1943 Y31.8499 F650   
G01 X-44.1553 Y32.0459 
G01 X-44.0789 Y32.2305 
G01 X-43.9679 Y32.3966 
G01 X-43.8266 Y32.5379 
G01 X-43.6605 Y32.6489 
G01 X-43.4759 Y32.7253 
G01 X-43.2799 Y32.7643 
G01 X-43.0800 Y32.7643 
G01 X-42.8840 Y32.7253 
G01 X-42.6994 Y32.6489 
G01 X-42.5333 Y32.5379 
G01 X-42.3920 Y32.3966 
G01 X-42.3153 Y32.2817 
G01 X-24.3338 Y32.2817 
G01 X-24.3112 Y32.3156 
G01 X-24.1876 Y32.4392 
G01 X-24.0423 Y32.5363 
G01 X-23.8808 Y32.6032 
G01 X-23.7094 Y32.6373 
G01 X-22.0105 Y32.6373 
G01 X-21.8391 Y32.6032 
G01 X-21.6776 Y32.5363 
G01 X-21.5323 Y32.4392 
G01 X-21.4087 Y32.3156 
G01 X-21.3116 Y32.1703 
G01 X-21.2447 Y32.0088 
G01 X-21.2106 Y31.8374 
G01 X-21.2106 Y31.6625 
G01 X-21.2447 Y31.4911 
G01 X-21.3116 Y31.3296 
G01 X-21.4087 Y31.1843 
G01 X-21.5323 Y31.0607 
G01 X-21.6776 Y30.9636 
G01 X-21.8391 Y30.8967 
G01 X-22.0105 Y30.8626 
G01 X-23.7094 Y30.8626 
G01 X-23.8808 Y30.8967 
G01 X-24.0423 Y30.9636 
G01 X-24.1876 Y31.0607 
G01 X-24.3112 Y31.1843 
G01 X-24.3338 Y31.2182 
G01 X-42.3153 Y31.2182 
G01 X-42.3920 Y31.1033 
G01 X-42.5333 Y30.9620 
G01 X-42.6994 Y30.8510 
G01 X-42.8840 Y30.7746 
G01 X-43.0800 Y30.7356 
G01 X-43.2799 Y30.7356 
G01 X-43.4759 Y30.7746 
G01 X-43.6605 Y30.8510 
G01 X-43.8266 Y30.9620 
G01 X-43.9679 Y31.1033 
G01 X-44.0789 Y31.2694 
G01 X-44.1553 Y31.4540 
G01 X-44.1943 Y31.6500 
G00 Z3.0000  
G00 X-44.1943 Y36.7300 
G01 Z-0.1000 F250   
G01 X-44.1943 Y36.9299 F650   
G01 X-44.1553 Y37.1259 
G01 X-44.0789 Y37.3105 
G01 X-43.9679 Y37.4766 
G01 X-43.8266 Y37.6179 
G01 X-43.6605 Y37.7289 
G01 X-43.4759 Y37.8053 
G01 X-43.2799 Y37.8443 
G01 X-43.0800 Y37.8443 
G01 X-42.8840 Y37.8053 
G01 X-42.6994 Y37.7289 
G01 X-42.5333 Y37.6179 
G01 X-42.3920 Y37.4766 
G01 X-42.3153 Y37.3617 
G01 X-24.3338 Y37.3617 
G01 X-24.3112 Y37.3956 
G01 X-24.1876 Y37.5192 
G01 X-24.0423 Y37.6163 
G01 X-23.8808 Y37.6832 
G01 X-23.7094 Y37.7173 
G01 X-22.0105 Y37.7173 
G01 X-21.8391 Y37.6832 
G01 X-21.6776 Y37.6163 
G01 X-21.5323 Y37.5192 
G01 X-21.4087 Y37.3956 
G01 X-21.3116 Y37.2503 
G01 X-21.2447 Y37.0888 
G01 X-21.2106 Y36.9174 
G01 X-21.2106 Y36.7425 
G01 X-21.2447 Y36.5711 
G01 X-21.3116 Y36.4096 
G01 X-21.4087 Y36.2643 
G01 X-21.5323 Y36.1407 
G01 X-21.6776 Y36.0436 
G01 X-21.8391 Y35.9767 
G01 X-22.0105 Y35.9426 
G01 X-23.7094 Y35.9426 
G01 X-23.8808 Y35.9767 
G01 X-24.0423 Y36.0436 
G01 X-24.1876 Y36.1407 
G01 X-24.3112 Y36.2643 
G01 X-24.3338 Y36.2982 
G01 X-42.3153 Y36.2982 
G01 X-42.3920 Y36.1833 
G01 X-42.5333 Y36.0420 
G01 X-42.6994 Y35.9310 
G01 X-42.8840 Y35.8546 
G01 X-43.0800 Y35.8156 
G01 X-43.2799 Y35.8156 
G01 X-43.4759 Y35.8546 
G01 X-43.6605 Y35.9310 
G01 X-43.8266 Y36.0420 
G01 X-43.9679 Y36.1833 
G01 X-44.0789 Y36.3494 
G01 X-44.1553 Y36.5340 
G01 X-44.1943 Y36.7300 
G00 Z3.0000  
G00 X-44.1943 Y41.8100 
G01 Z-0.1000 F250   
G01 X-44.1943 Y42.0099 F650   
G01 X-44.1553 Y42.2059 
G01 X-44.0789 Y42.3905 
G01 X-43.9679 Y42.5566 
G01 X-43.8266 Y42.6979 
G01 X-43.6605 Y42.8089 
G01 X-43.4759 Y42.8853 
G01 X-43.2799 Y42.9243 
G01 X-43.0800 Y42.9243 
G01 X-42.8840 Y42.8853 
G01 X-42.6994 Y42.8089 
G01 X-42.5333 Y42.6979 
G01 X-42.3920 Y42.5566 
G01 X-42.3153 Y42.4417 
G01 X-36.7999 Y42.4417 
G01 X-36.7213 Y42.5203 
G01 X-36.5926 Y42.6063 
G01 X-36.4496 Y42.6655 
G01 X-36.2978 Y42.6957 
G01 X-34.8221 Y42.6957 
G01 X-34.6703 Y42.6655 
G01 X-34.5273 Y42.6063 
G01 X-34.3986 Y42.5203 
G01 X-34.2892 Y42.4109 
G01 X-34.2032 Y42.2822 
G01 X-34.1440 Y42.1392 
G01 X-34.1138 Y41.9874 
G01 X-34.1138 Y41.8325 
G01 X-34.1440 Y41.6807 
G01 X-34.2032 Y41.5377 
G01 X-34.2892 Y41.4090 
G01 X-34.3986 Y41.2996 
G01 X-34.5273 Y41.2136 
G01 X-34.6703 Y41.1544 
G01 X-34.8221 Y41.1242 
G01 X-36.2978 Y41.1242 
G01 X-36.4496 Y41.1544 
G01 X-36.5926 Y41.2136 
G01 X-36.7213 Y41.2996 
G01 X-36.7999 Y41.3782 
G01 X-42.3153 Y41.3782 
G01 X-42.3920 Y41.2633 
G01 X-42.5333 Y41.1220 
G01 X-42.6994 Y41.0110 
G01 X-42.8840 Y40.9346 
G01 X-43.0800 Y40.8956 
G01 X-43.2799 Y40.8956 
G01 X-43.4759 Y40.9346 
G01 X-43.6605 Y41.0110 
G01 X-43.8266 Y41.1220 
G01 X-43.9679 Y41.2633 
G01 X-44.0789 Y41.4294 
G01 X-44.1553 Y41.6140 
G01 X-44.1943 Y41.8100 
G00 Z3.0000  
G00 X-44.1943 Y49.4300 
G01 Z-0.1000 F250   
G01 X-44.1943 Y49.6299 F650   
G01 X-44.1553 Y49.8259 
G01 X-44.0789 Y50.0105 
G01 X-43.9679 Y50.1766 
G01 X-43.8266 Y50.3179 
G01 X-43.6605 Y50.4289 
G01 X-43.4759 Y50.5053 
G01 X-43.2799 Y50.5443 
G01 X-43.0800 Y50.5443 
G01 X-42.8840 Y50.5053 
G01 X-42.6994 Y50.4289 
G01 X-42.5333 Y50.3179 
G01 X-42.3920 Y50.1766 
G01 X-42.2810 Y50.0105 
G01 X-42.2046 Y49.8259 
G01 X-42.1656 Y49.6299 
G01 X-42.1656 Y49.4300 
G01 X-42.2046 Y49.2340 
G01 X-42.2810 Y49.0494 
G01 X-42.3920 Y48.8833 
G01 X-42.5333 Y48.7420 
G01 X-42.6994 Y48.6310 
G01 X-42.8840 Y48.5546 
G01 X-43.0800 Y48.5156 
G01 X-43.2799 Y48.5156 
G01 X-43.4759 Y48.5546 
G01 X-43.6605 Y48.6310 
G01 X-43.8266 Y48.7420 
G01 X-43.9679 Y48.8833 
G01 X-44.0789 Y49.0494 
G01 X-44.1553 Y49.2340 
G01 X-44.1943 Y49.4300 
G00 Z3.0000  
G00 X-44.1943 Y51.9700 
G01 Z-0.1000 F250   
G01 X-44.1943 Y52.1699 F650   
G01 X-44.1553 Y52.3659 
G01 X-44.0789 Y52.5505 
G01 X-43.9679 Y52.7166 
G01 X-43.8266 Y52.8579 
G01 X-43.6605 Y52.9689 
G01 X-43.4759 Y53.0453 
G01 X-43.2799 Y53.0843 
G01 X-43.0800 Y53.0843 
G01 X-42.8840 Y53.0453 
G01 X-42.6994 Y52.9689 
G01 X-42.5333 Y52.8579 
G01 X-42.3920 Y52.7166 
G01 X-42.2810 Y52.5505 
G01 X-42.2046 Y52.3659 
G01 X-42.1656 Y52.1699 
G01 X-42.1656 Y51.9700 
G01 X-42.2046 Y51.7740 
G01 X-42.2810 Y51.5894 
G01 X-42.3920 Y51.4233 
G01 X-42.5333 Y51.2820 
G01 X-42.6994 Y51.1710 
G01 X-42.8840 Y51.0946 
G01 X-43.0800 Y51.0556 
G01 X-43.2799 Y51.0556 
G01 X-43.4759 Y51.0946 
G01 X-43.6605 Y51.1710 
G01 X-43.8266 Y51.2820 
G01 X-43.9679 Y51.4233 
G01 X-44.0789 Y51.5894 
G01 X-44.1553 Y51.7740 
G01 X-44.1943 Y51.9700 
G00 Z3.0000  
G00 X-44.1943 Y53.6960 
G01 Z-0.1000 F250   
G01 X-44.1943 Y55.5239 F650   
G01 X-44.1752 Y55.5700 
G01 X-44.1400 Y55.6052 
G01 X-44.0939 Y55.6243 
G01 X-42.2660 Y55.6243 
G01 X-42.2199 Y55.6052 
G01 X-42.1847 Y55.5700 
G01 X-42.1656 Y55.5239 
G01 X-42.1656 Y53.6960 
G01 X-42.1847 Y53.6499 
G01 X-42.2199 Y53.6147 
G01 X-42.2660 Y53.5956 
G01 X-44.0939 Y53.5956 
G01 X-44.1400 Y53.6147 
G01 X-44.1752 Y53.6499 
G01 X-44.1943 Y53.6960 
G00 Z3.0000  
G00 X-28.9326 Y28.5282 
G01 Z-0.1000 F250   
G01 X-29.0421 Y28.4187 F650   
G01 X-29.1742 Y28.3227 
G01 X-29.3197 Y28.2486 
G01 X-29.4750 Y28.1981 
G01 X-29.6363 Y28.1726 
G01 X-31.3236 Y28.1726 
G01 X-31.4849 Y28.1981 
G01 X-31.6402 Y28.2486 
G01 X-31.7857 Y28.3227 
G01 X-31.9178 Y28.4187 
G01 X-32.0332 Y28.5341 
G01 X-32.1292 Y28.6662 
G01 X-32.2033 Y28.8117 
G01 X-32.2538 Y28.9670 
G01 X-32.2793 Y29.1283 
G01 X-32.2793 Y29.2916 
G01 X-32.2538 Y29.4529 
G01 X-32.2033 Y29.6082 
G01 X-32.1292 Y29.7537 
G01 X-32.0332 Y29.8858 
G01 X-31.9178 Y30.0012 
G01 X-31.7857 Y30.0972 
G01 X-31.6402 Y30.1713 
G01 X-31.4849 Y30.2218 
G01 X-31.3236 Y30.2473 
G01 X-29.6363 Y30.2473 
G01 X-29.4750 Y30.2218 
G01 X-29.3197 Y30.1713 
G01 X-29.1742 Y30.0972 
G01 X-29.0421 Y30.0012 
G01 X-28.9326 Y29.8917 
G01 X-21.0017 Y29.8917 
G01 X-21.0017 Y46.3082 
G01 X-21.3126 Y46.3082 
G01 X-21.4221 Y46.1987 
G01 X-21.5542 Y46.1027 
G01 X-21.6997 Y46.0286 
G01 X-21.8550 Y45.9781 
G01 X-22.0163 Y45.9526 
G01 X-23.7036 Y45.9526 
G01 X-23.8649 Y45.9781 
G01 X-24.0202 Y46.0286 
G01 X-24.1657 Y46.1027 
G01 X-24.2978 Y46.1987 
G01 X-24.4132 Y46.3141 
G01 X-24.5092 Y46.4462 
G01 X-24.5833 Y46.5917 
G01 X-24.6338 Y46.7470 
G01 X-24.6593 Y46.9083 
G01 X-24.6593 Y47.0716 
G01 X-24.6338 Y47.2329 
G01 X-24.5833 Y47.3882 
G01 X-24.5092 Y47.5337 
G01 X-24.4132 Y47.6658 
G01 X-24.2978 Y47.7812 
G01 X-24.1657 Y47.8772 
G01 X-24.0202 Y47.9513 
G01 X-23.8649 Y48.0018 
G01 X-23.7036 Y48.0273 
G01 X-22.0163 Y48.0273 
G01 X-21.8550 Y48.0018 
G01 X-21.6997 Y47.9513 
G01 X-21.5542 Y47.8772 
G01 X-21.4221 Y47.7812 
G01 X-21.3126 Y47.6717 
G01 X-20.2528 Y47.6717 
G01 X-20.1211 Y47.6455 
G01 X-19.9970 Y47.5941 
G01 X-19.8853 Y47.5195 
G01 X-19.7904 Y47.4246 
G01 X-19.7158 Y47.3129 
G01 X-19.6644 Y47.1888 
G01 X-19.6382 Y47.0571 
G01 X-19.6382 Y46.9228 
G01 X-19.6382 Y29.2771 
G01 X-19.6382 Y17.8471 
G01 X-19.6382 Y17.7128 
G01 X-19.6644 Y17.5811 
G01 X-19.7158 Y17.4570 
G01 X-19.7904 Y17.3453 
G01 X-29.9504 Y7.1853  
G01 X-30.0453 Y7.0904  
G01 X-30.1570 Y7.0158  
G01 X-30.2811 Y6.9644  
G01 X-30.4128 Y6.9382  
G01 X-71.0528 Y6.9382  
G01 X-71.1871 Y6.9382  
G01 X-71.3188 Y6.9644  
G01 X-71.4429 Y7.0158  
G01 X-71.5546 Y7.0904  
G01 X-71.6495 Y7.1853  
G01 X-71.7241 Y7.2970  
G01 X-71.7755 Y7.4211  
G01 X-71.8017 Y7.5528  
G01 X-71.8017 Y43.1128 
G01 X-71.8017 Y43.2471 
G01 X-71.7755 Y43.3788 
G01 X-71.7241 Y43.5029 
G01 X-71.6495 Y43.6146 
G01 X-69.1095 Y46.1546 
G01 X-69.0146 Y46.2495 
G01 X-68.9029 Y46.3241 
G01 X-68.7788 Y46.3755 
G01 X-68.6471 Y46.4017 
G01 X-67.5873 Y46.4017 
G01 X-67.4778 Y46.5112 
G01 X-67.3457 Y46.6072 
G01 X-67.2002 Y46.6813 
G01 X-67.0449 Y46.7318 
G01 X-66.8836 Y46.7573 
G01 X-66.7217 Y46.7573 
G01 X-66.7217 Y49.4628 
G01 X-66.7217 Y49.5971 
G01 X-66.6955 Y49.7288 
G01 X-66.6441 Y49.8529 
G01 X-66.5695 Y49.9646 
G01 X-65.0897 Y51.4443 
G01 X-65.1492 Y51.5262 
G01 X-65.2233 Y51.6717 
G01 X-65.2738 Y51.8270 
G01 X-65.2993 Y51.9883 
G01 X-65.2993 Y52.1516 
G01 X-65.2738 Y52.3129 
G01 X-65.2233 Y52.4682 
G01 X-65.1492 Y52.6137 
G01 X-65.0532 Y52.7458 
G01 X-64.9378 Y52.8612 
G01 X-64.8057 Y52.9572 
G01 X-64.6602 Y53.0313 
G01 X-64.5049 Y53.0818 
G01 X-64.3436 Y53.1073 
G01 X-62.6563 Y53.1073 
G01 X-62.4950 Y53.0818 
G01 X-62.3397 Y53.0313 
G01 X-62.1942 Y52.9572 
G01 X-62.0621 Y52.8612 
G01 X-61.9526 Y52.7517 
G01 X-59.3638 Y52.7517 
G01 X-59.3081 Y52.8285 
G01 X-59.1785 Y52.9581 
G01 X-59.0302 Y53.0658 
G01 X-58.8669 Y53.1490 
G01 X-58.6926 Y53.2056 
G01 X-58.5116 Y53.2343 
G01 X-58.3283 Y53.2343 
G01 X-58.1473 Y53.2056 
G01 X-57.9730 Y53.1490 
G01 X-57.8097 Y53.0658 
G01 X-57.6614 Y52.9581 
G01 X-57.5318 Y52.8285 
G01 X-57.4241 Y52.6802 
G01 X-57.3409 Y52.5169 
G01 X-57.2843 Y52.3426 
G01 X-57.2556 Y52.1616 
G01 X-57.2556 Y51.9783 
G01 X-57.2843 Y51.7973 
G01 X-57.3409 Y51.6230 
G01 X-57.4241 Y51.4597 
G01 X-57.5318 Y51.3114 
G01 X-57.6614 Y51.1818 
G01 X-57.8097 Y51.0741 
G01 X-57.9730 Y50.9909 
G01 X-58.1473 Y50.9343 
G01 X-58.3283 Y50.9056 
G01 X-58.5116 Y50.9056 
G01 X-58.6926 Y50.9343 
G01 X-58.8669 Y50.9909 
G01 X-59.0302 Y51.0741 
G01 X-59.1785 Y51.1818 
G01 X-59.3081 Y51.3114 
G01 X-59.3638 Y51.3882 
G01 X-61.9526 Y51.3882 
G01 X-62.0621 Y51.2787 
G01 X-62.1942 Y51.1827 
G01 X-62.3397 Y51.1086 
G01 X-62.4950 Y51.0581 
G01 X-62.6563 Y51.0326 
G01 X-63.5732 Y51.0326 
G01 X-65.3582 Y49.2475 
G01 X-65.3582 Y46.7573 
G01 X-65.1963 Y46.7573 
G01 X-65.0350 Y46.7318 
G01 X-64.8797 Y46.6813 
G01 X-64.7342 Y46.6072 
G01 X-64.6021 Y46.5112 
G01 X-64.4867 Y46.3958 
G01 X-64.3907 Y46.2637 
G01 X-64.3166 Y46.1182 
G01 X-64.2661 Y45.9629 
G01 X-64.2406 Y45.8016 
G01 X-64.2406 Y45.6383 
G01 X-64.2661 Y45.4770 
G01 X-64.3166 Y45.3217 
G01 X-64.3907 Y45.1762 
G01 X-64.4867 Y45.0441 
G01 X-64.6021 Y44.9287 
G01 X-64.7342 Y44.8327 
G01 X-64.8797 Y44.7586 
G01 X-65.0350 Y44.7081 
G01 X-65.1963 Y44.6826 
G01 X-66.8836 Y44.6826 
G01 X-67.0449 Y44.7081 
G01 X-67.2002 Y44.7586 
G01 X-67.3457 Y44.8327 
G01 X-67.4778 Y44.9287 
G01 X-67.5873 Y45.0382 
G01 X-68.2975 Y45.0382 
G01 X-70.4382 Y42.8975 
G01 X-70.4382 Y8.3017  
G01 X-30.7624 Y8.3017  
G01 X-21.0017 Y18.0624 
G01 X-21.0017 Y28.5282 
G01 X-28.9326 Y28.5282 
G00 Z3.0000  
G00 X-66.8836 Y41.6773 
G01 Z-0.1000 F250   
G01 X-65.1963 Y41.6773 F650   
G01 X-65.0350 Y41.6518 
G01 X-64.8797 Y41.6013 
G01 X-64.7342 Y41.5272 
G01 X-64.6021 Y41.4312 
G01 X-64.4926 Y41.3217 
G01 X-63.5671 Y41.3217 
G01 X-63.4328 Y41.3217 
G01 X-63.3011 Y41.2955 
G01 X-63.1770 Y41.2441 
G01 X-63.0653 Y41.1695 
G01 X-61.7953 Y39.8995 
G01 X-61.7004 Y39.8046 
G01 X-61.6258 Y39.6929 
G01 X-61.5744 Y39.5688 
G01 X-61.5482 Y39.4371 
G01 X-61.5482 Y34.9717 
G01 X-59.3638 Y34.9717 
G01 X-59.3081 Y35.0485 
G01 X-59.1785 Y35.1781 
G01 X-59.0302 Y35.2858 
G01 X-58.8669 Y35.3690 
G01 X-58.6926 Y35.4256 
G01 X-58.5116 Y35.4543 
G01 X-58.3283 Y35.4543 
G01 X-58.1473 Y35.4256 
G01 X-57.9730 Y35.3690 
G01 X-57.8097 Y35.2858 
G01 X-57.6614 Y35.1781 
G01 X-57.5318 Y35.0485 
G01 X-57.4241 Y34.9002 
G01 X-57.3409 Y34.7369 
G01 X-57.2843 Y34.5626 
G01 X-57.2556 Y34.3816 
G01 X-57.2556 Y34.1983 
G01 X-57.2843 Y34.0173 
G01 X-57.3409 Y33.8430 
G01 X-57.4241 Y33.6797 
G01 X-57.5318 Y33.5314 
G01 X-57.6614 Y33.4018 
G01 X-57.8097 Y33.2941 
G01 X-57.9730 Y33.2109 
G01 X-58.1473 Y33.1543 
G01 X-58.3283 Y33.1256 
G01 X-58.5116 Y33.1256 
G01 X-58.6926 Y33.1543 
G01 X-58.8669 Y33.2109 
G01 X-59.0302 Y33.2941 
G01 X-59.1785 Y33.4018 
G01 X-59.3081 Y33.5314 
G01 X-59.3638 Y33.6082 
G01 X-62.2971 Y33.6082 
G01 X-62.4288 Y33.6344 
G01 X-62.5529 Y33.6858 
G01 X-62.6646 Y33.7604 
G01 X-62.7595 Y33.8553 
G01 X-62.8341 Y33.9670 
G01 X-62.8855 Y34.0911 
G01 X-62.9117 Y34.2228 
G01 X-62.9117 Y34.3571 
G01 X-62.9117 Y39.0875 
G01 X-63.7824 Y39.9582 
G01 X-64.4926 Y39.9582 
G01 X-64.6021 Y39.8487 
G01 X-64.7342 Y39.7527 
G01 X-64.8797 Y39.6786 
G01 X-65.0350 Y39.6281 
G01 X-65.1963 Y39.6026 
G01 X-66.8836 Y39.6026 
G01 X-67.0449 Y39.6281 
G01 X-67.2002 Y39.6786 
G01 X-67.3457 Y39.7527 
G01 X-67.4778 Y39.8487 
G01 X-67.5932 Y39.9641 
G01 X-67.6892 Y40.0962 
G01 X-67.7633 Y40.2417 
G01 X-67.8138 Y40.3970 
G01 X-67.8393 Y40.5583 
G01 X-67.8393 Y40.7216 
G01 X-67.8138 Y40.8829 
G01 X-67.7633 Y41.0382 
G01 X-67.6892 Y41.1837 
G01 X-67.5932 Y41.3158 
G01 X-67.4778 Y41.4312 
G01 X-67.3457 Y41.5272 
G01 X-67.2002 Y41.6013 
G01 X-67.0449 Y41.6518 
G01 X-66.8836 Y41.6773 
G00 Z3.0000  
G00 X-66.8836 Y44.2173 
G01 Z-0.1000 F250   
G01 X-65.1963 Y44.2173 F650   
G01 X-65.0350 Y44.1918 
G01 X-64.8797 Y44.1413 
G01 X-64.7342 Y44.0672 
G01 X-64.6021 Y43.9712 
G01 X-64.4926 Y43.8617 
G01 X-63.7824 Y43.8617 
G01 X-62.9117 Y44.7324 
G01 X-62.9117 Y46.9228 
G01 X-62.9117 Y47.0571 
G01 X-62.8855 Y47.1888 
G01 X-62.8341 Y47.3129 
G01 X-62.7595 Y47.4246 
G01 X-62.6646 Y47.5195 
G01 X-62.5529 Y47.5941 
G01 X-62.4288 Y47.6455 
G01 X-62.2971 Y47.6717 
G01 X-59.3638 Y47.6717 
G01 X-59.3081 Y47.7485 
G01 X-59.1785 Y47.8781 
G01 X-59.0302 Y47.9858 
G01 X-58.8669 Y48.0690 
G01 X-58.6926 Y48.1256 
G01 X-58.5116 Y48.1543 
G01 X-58.3283 Y48.1543 
G01 X-58.1473 Y48.1256 
G01 X-57.9730 Y48.0690 
G01 X-57.8097 Y47.9858 
G01 X-57.6614 Y47.8781 
G01 X-57.5318 Y47.7485 
G01 X-57.4241 Y47.6002 
G01 X-57.3409 Y47.4369 
G01 X-57.2843 Y47.2626 
G01 X-57.2556 Y47.0816 
G01 X-57.2556 Y46.8983 
G01 X-57.2843 Y46.7173 
G01 X-57.3409 Y46.5430 
G01 X-57.4241 Y46.3797 
G01 X-57.5318 Y46.2314 
G01 X-57.6614 Y46.1018 
G01 X-57.8097 Y45.9941 
G01 X-57.9730 Y45.9109 
G01 X-58.1473 Y45.8543 
G01 X-58.3283 Y45.8256 
G01 X-58.5116 Y45.8256 
G01 X-58.6926 Y45.8543 
G01 X-58.8669 Y45.9109 
G01 X-59.0302 Y45.9941 
G01 X-59.1785 Y46.1018 
G01 X-59.3081 Y46.2314 
G01 X-59.3638 Y46.3082 
G01 X-61.5482 Y46.3082 
G01 X-61.5482 Y44.3828 
G01 X-61.5744 Y44.2511 
G01 X-61.6258 Y44.1270 
G01 X-61.7004 Y44.0153 
G01 X-61.7953 Y43.9204 
G01 X-63.0653 Y42.6504 
G01 X-63.1770 Y42.5758 
G01 X-63.3011 Y42.5244 
G01 X-63.4328 Y42.4982 
G01 X-63.5671 Y42.4982 
G01 X-64.4926 Y42.4982 
G01 X-64.6021 Y42.3887 
G01 X-64.7342 Y42.2927 
G01 X-64.8797 Y42.2186 
G01 X-65.0350 Y42.1681 
G01 X-65.1963 Y42.1426 
G01 X-66.8836 Y42.1426 
G01 X-67.0449 Y42.1681 
G01 X-67.2002 Y42.2186 
G01 X-67.3457 Y42.2927 
G01 X-67.4778 Y42.3887 
G01 X-67.5932 Y42.5041 
G01 X-67.6892 Y42.6362 
G01 X-67.7633 Y42.7817 
G01 X-67.8138 Y42.9370 
G01 X-67.8393 Y43.0983 
G01 X-67.8393 Y43.2616 
G01 X-67.8138 Y43.4229 
G01 X-67.7633 Y43.5782 
G01 X-67.6892 Y43.7237 
G01 X-67.5932 Y43.8558 
G01 X-67.4778 Y43.9712 
G01 X-67.3457 Y44.0672 
G01 X-67.2002 Y44.1413 
G01 X-67.0449 Y44.1918 
G01 X-66.8836 Y44.2173 
G00 Z3.0000  
G00 X-29.6363 Y25.6326 
G01 Z-0.1000 F250   
G01 X-31.3236 Y25.6326 F650   
G01 X-31.4849 Y25.6581 
G01 X-31.6402 Y25.7086 
G01 X-31.7857 Y25.7827 
G01 X-31.9178 Y25.8787 
G01 X-32.0273 Y25.9882 
G01 X-34.2228 Y25.9882 
G01 X-34.3571 Y25.9882 
G01 X-34.4888 Y26.0144 
G01 X-34.6129 Y26.0658 
G01 X-34.7246 Y26.1404 
G01 X-34.8195 Y26.2353 
G01 X-34.8941 Y26.3470 
G01 X-34.9455 Y26.4711 
G01 X-34.9717 Y26.6028 
G01 X-34.9717 Y28.5282 
G01 X-42.2361 Y28.5282 
G01 X-42.2918 Y28.4514 
G01 X-42.4214 Y28.3218 
G01 X-42.5697 Y28.2141 
G01 X-42.7330 Y28.1309 
G01 X-42.9073 Y28.0743 
G01 X-43.0883 Y28.0456 
G01 X-43.2716 Y28.0456 
G01 X-43.4526 Y28.0743 
G01 X-43.6269 Y28.1309 
G01 X-43.7902 Y28.2141 
G01 X-43.9385 Y28.3218 
G01 X-44.0681 Y28.4514 
G01 X-44.1758 Y28.5997 
G01 X-44.2590 Y28.7630 
G01 X-44.3156 Y28.9373 
G01 X-44.3443 Y29.1183 
G01 X-44.3443 Y29.3016 
G01 X-44.3156 Y29.4826 
G01 X-44.2590 Y29.6569 
G01 X-44.1758 Y29.8202 
G01 X-44.0681 Y29.9685 
G01 X-43.9385 Y30.0981 
G01 X-43.7902 Y30.2058 
G01 X-43.6269 Y30.2890 
G01 X-43.4526 Y30.3456 
G01 X-43.2716 Y30.3743 
G01 X-43.0883 Y30.3743 
G01 X-42.9073 Y30.3456 
G01 X-42.7330 Y30.2890 
G01 X-42.5697 Y30.2058 
G01 X-42.4214 Y30.0981 
G01 X-42.2918 Y29.9685 
G01 X-42.2361 Y29.8917 
G01 X-34.2228 Y29.8917 
G01 X-34.0911 Y29.8655 
G01 X-33.9670 Y29.8141 
G01 X-33.8553 Y29.7395 
G01 X-33.7604 Y29.6446 
G01 X-33.6858 Y29.5329 
G01 X-33.6344 Y29.4088 
G01 X-33.6082 Y29.2771 
G01 X-33.6082 Y29.1428 
G01 X-33.6082 Y27.3517 
G01 X-32.0273 Y27.3517 
G01 X-31.9178 Y27.4612 
G01 X-31.7857 Y27.5572 
G01 X-31.6402 Y27.6313 
G01 X-31.4849 Y27.6818 
G01 X-31.3236 Y27.7073 
G01 X-29.6363 Y27.7073 
G01 X-29.4750 Y27.6818 
G01 X-29.3197 Y27.6313 
G01 X-29.1742 Y27.5572 
G01 X-29.0421 Y27.4612 
G01 X-28.9267 Y27.3458 
G01 X-28.8307 Y27.2137 
G01 X-28.7566 Y27.0682 
G01 X-28.7061 Y26.9129 
G01 X-28.6806 Y26.7516 
G01 X-28.6806 Y26.5883 
G01 X-28.7061 Y26.4270 
G01 X-28.7566 Y26.2717 
G01 X-28.8307 Y26.1262 
G01 X-28.9267 Y25.9941 
G01 X-29.0421 Y25.8787 
G01 X-29.1742 Y25.7827 
G01 X-29.3197 Y25.7086 
G01 X-29.4750 Y25.6581 
G01 X-29.6363 Y25.6326 
G00 Z3.0000  
G00 X-29.6363 Y20.5526 
G01 Z-0.1000 F250   
G01 X-31.3236 Y20.5526 F650   
G01 X-31.4849 Y20.5781 
G01 X-31.6402 Y20.6286 
G01 X-31.7857 Y20.7027 
G01 X-31.9178 Y20.7987 
G01 X-32.0273 Y20.9082 
G01 X-39.3028 Y20.9082 
G01 X-39.4371 Y20.9082 
G01 X-39.5688 Y20.9344 
G01 X-39.6929 Y20.9858 
G01 X-39.8046 Y21.0604 
G01 X-39.8995 Y21.1553 
G01 X-39.9741 Y21.2670 
G01 X-40.0255 Y21.3911 
G01 X-40.0517 Y21.5228 
G01 X-40.0517 Y23.4482 
G01 X-42.2361 Y23.4482 
G01 X-42.2918 Y23.3714 
G01 X-42.4214 Y23.2418 
G01 X-42.5697 Y23.1341 
G01 X-42.7330 Y23.0509 
G01 X-42.9073 Y22.9943 
G01 X-43.0883 Y22.9656 
G01 X-43.2716 Y22.9656 
G01 X-43.4526 Y22.9943 
G01 X-43.6269 Y23.0509 
G01 X-43.7902 Y23.1341 
G01 X-43.9385 Y23.2418 
G01 X-44.0681 Y23.3714 
G01 X-44.1758 Y23.5197 
G01 X-44.2590 Y23.6830 
G01 X-44.3156 Y23.8573 
G01 X-44.3443 Y24.0383 
G01 X-44.3443 Y24.2216 
G01 X-44.3156 Y24.4026 
G01 X-44.2590 Y24.5769 
G01 X-44.1758 Y24.7402 
G01 X-44.0681 Y24.8885 
G01 X-43.9385 Y25.0181 
G01 X-43.7902 Y25.1258 
G01 X-43.6269 Y25.2090 
G01 X-43.4526 Y25.2656 
G01 X-43.2716 Y25.2943 
G01 X-43.0883 Y25.2943 
G01 X-42.9073 Y25.2656 
G01 X-42.7330 Y25.2090 
G01 X-42.5697 Y25.1258 
G01 X-42.4214 Y25.0181 
G01 X-42.2918 Y24.8885 
G01 X-42.2361 Y24.8117 
G01 X-39.3028 Y24.8117 
G01 X-39.1711 Y24.7855 
G01 X-39.0470 Y24.7341 
G01 X-38.9353 Y24.6595 
G01 X-38.8404 Y24.5646 
G01 X-38.7658 Y24.4529 
G01 X-38.7144 Y24.3288 
G01 X-38.6882 Y24.1971 
G01 X-38.6882 Y24.0628 
G01 X-38.6882 Y22.2717 
G01 X-32.0273 Y22.2717 
G01 X-31.9178 Y22.3812 
G01 X-31.7857 Y22.4772 
G01 X-31.6402 Y22.5513 
G01 X-31.4849 Y22.6018 
G01 X-31.3236 Y22.6273 
G01 X-29.6363 Y22.6273 
G01 X-29.4750 Y22.6018 
G01 X-29.3197 Y22.5513 
G01 X-29.1742 Y22.4772 
G01 X-29.0421 Y22.3812 
G01 X-28.9267 Y22.2658 
G01 X-28.8307 Y22.1337 
G01 X-28.7566 Y21.9882 
G01 X-28.7061 Y21.8329 
G01 X-28.6806 Y21.6716 
G01 X-28.6806 Y21.5083 
G01 X-28.7061 Y21.3470 
G01 X-28.7566 Y21.1917 
G01 X-28.8307 Y21.0462 
G01 X-28.9267 Y20.9141 
G01 X-29.0421 Y20.7987 
G01 X-29.1742 Y20.7027 
G01 X-29.3197 Y20.6286 
G01 X-29.4750 Y20.5781 
G01 X-29.6363 Y20.5526 
G00 Z3.0000  
G00 X-29.6363 Y15.4726 
G01 Z-0.1000 F250   
G01 X-30.5531 Y15.4726 F650   
G01 X-31.0185 Y15.0073 
G01 X-29.6363 Y15.0073 
G01 X-29.4750 Y14.9818 
G01 X-29.3197 Y14.9313 
G01 X-29.1742 Y14.8572 
G01 X-29.0421 Y14.7612 
G01 X-28.9267 Y14.6458 
G01 X-28.8307 Y14.5137 
G01 X-28.7566 Y14.3682 
G01 X-28.7061 Y14.2129 
G01 X-28.6806 Y14.0516 
G01 X-28.6806 Y13.8883 
G01 X-28.7061 Y13.7270 
G01 X-28.7566 Y13.5717 
G01 X-28.8307 Y13.4262 
G01 X-28.9267 Y13.2941 
G01 X-29.0421 Y13.1787 
G01 X-29.1742 Y13.0827 
G01 X-29.3197 Y13.0086 
G01 X-29.4750 Y12.9581 
G01 X-29.6363 Y12.9326 
G01 X-29.7982 Y12.9326 
G01 X-29.7982 Y12.7671 
G01 X-29.7982 Y12.6328 
G01 X-29.8244 Y12.5011 
G01 X-29.8758 Y12.3770 
G01 X-29.9504 Y12.2653 
G01 X-32.4904 Y9.7253  
G01 X-32.5853 Y9.6304  
G01 X-32.6970 Y9.5558  
G01 X-32.8211 Y9.5044  
G01 X-32.9528 Y9.4782  
G01 X-58.3528 Y9.4782  
G01 X-58.4871 Y9.4782  
G01 X-58.6188 Y9.5044  
G01 X-58.7429 Y9.5558  
G01 X-58.8546 Y9.6304  
G01 X-58.9495 Y9.7253  
G01 X-59.0241 Y9.8370  
G01 X-59.0755 Y9.9611  
G01 X-59.1017 Y10.0928 
G01 X-59.1017 Y18.1061 
G01 X-59.1785 Y18.1618 
G01 X-59.3081 Y18.2914 
G01 X-59.4158 Y18.4397 
G01 X-59.4990 Y18.6030 
G01 X-59.5556 Y18.7773 
G01 X-59.5843 Y18.9583 
G01 X-59.5843 Y19.1416 
G01 X-59.5556 Y19.3226 
G01 X-59.4990 Y19.4969 
G01 X-59.4158 Y19.6602 
G01 X-59.3081 Y19.8085 
G01 X-59.1785 Y19.9381 
G01 X-59.0302 Y20.0458 
G01 X-58.8669 Y20.1290 
G01 X-58.6926 Y20.1856 
G01 X-58.5116 Y20.2143 
G01 X-58.3283 Y20.2143 
G01 X-58.1473 Y20.1856 
G01 X-57.9730 Y20.1290 
G01 X-57.8097 Y20.0458 
G01 X-57.6614 Y19.9381 
G01 X-57.5318 Y19.8085 
G01 X-57.4241 Y19.6602 
G01 X-57.3409 Y19.4969 
G01 X-57.2843 Y19.3226 
G01 X-57.2556 Y19.1416 
G01 X-57.2556 Y18.9583 
G01 X-57.2843 Y18.7773 
G01 X-57.3409 Y18.6030 
G01 X-57.4241 Y18.4397 
G01 X-57.5318 Y18.2914 
G01 X-57.6614 Y18.1618 
G01 X-57.7382 Y18.1061 
G01 X-57.7382 Y10.8417 
G01 X-33.3024 Y10.8417 
G01 X-31.2114 Y12.9326 
G01 X-31.3236 Y12.9326 
G01 X-31.4849 Y12.9581 
G01 X-31.6402 Y13.0086 
G01 X-31.7857 Y13.0827 
G01 X-31.9178 Y13.1787 
G01 X-32.0332 Y13.2941 
G01 X-32.1292 Y13.4262 
G01 X-32.2033 Y13.5717 
G01 X-32.2538 Y13.7270 
G01 X-32.2599 Y13.7658 
G01 X-33.7604 Y12.2653 
G01 X-33.8553 Y12.1704 
G01 X-33.9670 Y12.0958 
G01 X-34.0911 Y12.0444 
G01 X-34.2228 Y12.0182 
G01 X-49.5971 Y12.0182 
G01 X-49.7288 Y12.0444 
G01 X-49.8529 Y12.0958 
G01 X-49.9646 Y12.1704 
G01 X-50.0595 Y12.2653 
G01 X-53.7745 Y15.9804 
G01 X-53.8695 Y16.0753 
G01 X-53.9441 Y16.1870 
G01 X-53.9955 Y16.3111 
G01 X-54.0217 Y16.4428 
G01 X-54.0217 Y21.5228 
G01 X-54.0217 Y21.6571 
G01 X-53.9955 Y21.7888 
G01 X-53.9441 Y21.9129 
G01 X-53.8695 Y22.0246 
G01 X-53.7746 Y22.1195 
G01 X-53.6629 Y22.1941 
G01 X-53.5388 Y22.2455 
G01 X-53.4071 Y22.2717 
G01 X-44.1238 Y22.2717 
G01 X-44.0681 Y22.3485 
G01 X-43.9385 Y22.4781 
G01 X-43.7902 Y22.5858 
G01 X-43.6269 Y22.6690 
G01 X-43.4526 Y22.7256 
G01 X-43.2716 Y22.7543 
G01 X-43.0883 Y22.7543 
G01 X-42.9073 Y22.7256 
G01 X-42.7330 Y22.6690 
G01 X-42.5697 Y22.5858 
G01 X-42.4214 Y22.4781 
G01 X-42.2918 Y22.3485 
G01 X-42.1841 Y22.2002 
G01 X-42.1009 Y22.0369 
G01 X-42.0443 Y21.8626 
G01 X-42.0156 Y21.6816 
G01 X-42.0156 Y21.4983 
G01 X-42.0443 Y21.3173 
G01 X-42.1009 Y21.1430 
G01 X-42.1841 Y20.9797 
G01 X-42.2918 Y20.8314 
G01 X-42.4214 Y20.7018 
G01 X-42.5697 Y20.5941 
G01 X-42.7330 Y20.5109 
G01 X-42.9073 Y20.4543 
G01 X-43.0883 Y20.4256 
G01 X-43.2716 Y20.4256 
G01 X-43.4526 Y20.4543 
G01 X-43.6269 Y20.5109 
G01 X-43.7902 Y20.5941 
G01 X-43.9385 Y20.7018 
G01 X-44.0681 Y20.8314 
G01 X-44.1238 Y20.9082 
G01 X-52.6582 Y20.9082 
G01 X-52.6582 Y16.7923 
G01 X-49.2476 Y13.3817 
G01 X-34.5724 Y13.3817 
G01 X-32.0697 Y15.8844 
G01 X-32.1292 Y15.9662 
G01 X-32.2033 Y16.1117 
G01 X-32.2538 Y16.2670 
G01 X-32.2793 Y16.4283 
G01 X-32.2793 Y16.5916 
G01 X-32.2538 Y16.7529 
G01 X-32.2033 Y16.9082 
G01 X-32.1292 Y17.0537 
G01 X-32.0332 Y17.1858 
G01 X-31.9178 Y17.3012 
G01 X-31.7857 Y17.3972 
G01 X-31.6402 Y17.4713 
G01 X-31.4849 Y17.5218 
G01 X-31.3236 Y17.5473 
G01 X-29.6363 Y17.5473 
G01 X-29.4750 Y17.5218 
G01 X-29.3197 Y17.4713 
G01 X-29.1742 Y17.3972 
G01 X-29.0421 Y17.3012 
G01 X-28.9267 Y17.1858 
G01 X-28.8307 Y17.0537 
G01 X-28.7566 Y16.9082 
G01 X-28.7061 Y16.7529 
G01 X-28.6806 Y16.5916 
G01 X-28.6806 Y16.4283 
G01 X-28.7061 Y16.2670 
G01 X-28.7566 Y16.1117 
G01 X-28.8307 Y15.9662 
G01 X-28.9267 Y15.8341 
G01 X-29.0421 Y15.7187 
G01 X-29.1742 Y15.6227 
G01 X-29.3197 Y15.5486 
G01 X-29.4750 Y15.4981 
G01 X-29.6363 Y15.4726 
G00 Z3.0000  
G00 X-22.0163 Y40.8726 
G01 Z-0.1000 F250   
G01 X-23.7036 Y40.8726 F650   
G01 X-23.8649 Y40.8981 
G01 X-24.0202 Y40.9486 
G01 X-24.1657 Y41.0227 
G01 X-24.2978 Y41.1187 
G01 X-24.4073 Y41.2282 
G01 X-26.6379 Y41.2282 
G01 X-26.6830 Y41.1831 
G01 X-26.8363 Y41.0807 
G01 X-27.0066 Y41.0102 
G01 X-27.1873 Y40.9742 
G01 X-28.6926 Y40.9742 
G01 X-28.8733 Y41.0102 
G01 X-29.0436 Y41.0807 
G01 X-29.1969 Y41.1831 
G01 X-29.3272 Y41.3134 
G01 X-29.4296 Y41.4667 
G01 X-29.5001 Y41.6370 
G01 X-29.5361 Y41.8177 
G01 X-29.5361 Y42.0022 
G01 X-29.5001 Y42.1829 
G01 X-29.4296 Y42.3532 
G01 X-29.3272 Y42.5065 
G01 X-29.1969 Y42.6368 
G01 X-29.0436 Y42.7392 
G01 X-28.8733 Y42.8097 
G01 X-28.6926 Y42.8457 
G01 X-27.1873 Y42.8457 
G01 X-27.0066 Y42.8097 
G01 X-26.8363 Y42.7392 
G01 X-26.6830 Y42.6368 
G01 X-26.6379 Y42.5917 
G01 X-24.4073 Y42.5917 
G01 X-24.2978 Y42.7012 
G01 X-24.1657 Y42.7972 
G01 X-24.0202 Y42.8713 
G01 X-23.8649 Y42.9218 
G01 X-23.7036 Y42.9473 
G01 X-22.0163 Y42.9473 
G01 X-21.8550 Y42.9218 
G01 X-21.6997 Y42.8713 
G01 X-21.5542 Y42.7972 
G01 X-21.4221 Y42.7012 
G01 X-21.3067 Y42.5858 
G01 X-21.2107 Y42.4537 
G01 X-21.1366 Y42.3082 
G01 X-21.0861 Y42.1529 
G01 X-21.0606 Y41.9916 
G01 X-21.0606 Y41.8283 
G01 X-21.0861 Y41.6670 
G01 X-21.1366 Y41.5117 
G01 X-21.2107 Y41.3662 
G01 X-21.3067 Y41.2341 
G01 X-21.4221 Y41.1187 
G01 X-21.5542 Y41.0227 
G01 X-21.6997 Y40.9486 
G01 X-21.8550 Y40.8981 
G01 X-22.0163 Y40.8726 
G00 Z3.0000  
G00 X-22.0163 Y33.2526 
G01 Z-0.1000 F250   
G01 X-23.7036 Y33.2526 F650   
G01 X-23.8649 Y33.2781 
G01 X-24.0202 Y33.3286 
G01 X-24.1657 Y33.4027 
G01 X-24.2978 Y33.4987 
G01 X-24.4073 Y33.6082 
G01 X-42.2361 Y33.6082 
G01 X-42.2918 Y33.5314 
G01 X-42.4214 Y33.4018 
G01 X-42.5697 Y33.2941 
G01 X-42.7330 Y33.2109 
G01 X-42.9073 Y33.1543 
G01 X-43.0883 Y33.1256 
G01 X-43.2716 Y33.1256 
G01 X-43.4526 Y33.1543 
G01 X-43.6269 Y33.2109 
G01 X-43.7902 Y33.2941 
G01 X-43.9385 Y33.4018 
G01 X-44.0681 Y33.5314 
G01 X-44.1758 Y33.6797 
G01 X-44.2590 Y33.8430 
G01 X-44.3156 Y34.0173 
G01 X-44.3443 Y34.1983 
G01 X-44.3443 Y34.3816 
G01 X-44.3156 Y34.5626 
G01 X-44.2590 Y34.7369 
G01 X-44.1758 Y34.9002 
G01 X-44.0681 Y35.0485 
G01 X-43.9385 Y35.1781 
G01 X-43.7902 Y35.2858 
G01 X-43.6269 Y35.3690 
G01 X-43.4526 Y35.4256 
G01 X-43.2716 Y35.4543 
G01 X-43.0883 Y35.4543 
G01 X-42.9073 Y35.4256 
G01 X-42.7330 Y35.3690 
G01 X-42.5697 Y35.2858 
G01 X-42.4214 Y35.1781 
G01 X-42.2918 Y35.0485 
G01 X-42.2361 Y34.9717 
G01 X-24.4073 Y34.9717 
G01 X-24.2978 Y35.0812 
G01 X-24.1657 Y35.1772 
G01 X-24.0202 Y35.2513 
G01 X-23.8649 Y35.3018 
G01 X-23.7036 Y35.3273 
G01 X-22.0163 Y35.3273 
G01 X-21.8550 Y35.3018 
G01 X-21.6997 Y35.2513 
G01 X-21.5542 Y35.1772 
G01 X-21.4221 Y35.0812 
G01 X-21.3067 Y34.9658 
G01 X-21.2107 Y34.8337 
G01 X-21.1366 Y34.6882 
G01 X-21.0861 Y34.5329 
G01 X-21.0606 Y34.3716 
G01 X-21.0606 Y34.2083 
G01 X-21.0861 Y34.0470 
G01 X-21.1366 Y33.8917 
G01 X-21.2107 Y33.7462 
G01 X-21.3067 Y33.6141 
G01 X-21.4221 Y33.4987 
G01 X-21.5542 Y33.4027 
G01 X-21.6997 Y33.3286 
G01 X-21.8550 Y33.2781 
G01 X-22.0163 Y33.2526 
G00 Z3.0000  
G00 X-27.1873 Y38.4342 
G01 Z-0.1000 F250   
G01 X-28.6926 Y38.4342 F650   
G01 X-28.8733 Y38.4702 
G01 X-29.0436 Y38.5407 
G01 X-29.1969 Y38.6431 
G01 X-29.3272 Y38.7734 
G01 X-29.4296 Y38.9267 
G01 X-29.5001 Y39.0970 
G01 X-29.5361 Y39.2777 
G01 X-29.5361 Y39.4622 
G01 X-29.5001 Y39.6429 
G01 X-29.4296 Y39.8132 
G01 X-29.3272 Y39.9665 
G01 X-29.1969 Y40.0968 
G01 X-29.0436 Y40.1992 
G01 X-28.8733 Y40.2697 
G01 X-28.6926 Y40.3057 
G01 X-27.1873 Y40.3057 
G01 X-27.0066 Y40.2697 
G01 X-26.8363 Y40.1992 
G01 X-26.6830 Y40.0968 
G01 X-26.6379 Y40.0517 
G01 X-24.4073 Y40.0517 
G01 X-24.2978 Y40.1612 
G01 X-24.1657 Y40.2572 
G01 X-24.0202 Y40.3313 
G01 X-23.8649 Y40.3818 
G01 X-23.7036 Y40.4073 
G01 X-22.0163 Y40.4073 
G01 X-21.8550 Y40.3818 
G01 X-21.6997 Y40.3313 
G01 X-21.5542 Y40.2572 
G01 X-21.4221 Y40.1612 
G01 X-21.3067 Y40.0458 
G01 X-21.2107 Y39.9137 
G01 X-21.1366 Y39.7682 
G01 X-21.0861 Y39.6129 
G01 X-21.0606 Y39.4516 
G01 X-21.0606 Y39.2883 
G01 X-21.0861 Y39.1270 
G01 X-21.1366 Y38.9717 
G01 X-21.2107 Y38.8262 
G01 X-21.3067 Y38.6941 
G01 X-21.4221 Y38.5787 
G01 X-21.5542 Y38.4827 
G01 X-21.6997 Y38.4086 
G01 X-21.8550 Y38.3581 
G01 X-22.0163 Y38.3326 
G01 X-23.7036 Y38.3326 
G01 X-23.8649 Y38.3581 
G01 X-24.0202 Y38.4086 
G01 X-24.1657 Y38.4827 
G01 X-24.2978 Y38.5787 
G01 X-24.4073 Y38.6882 
G01 X-26.6379 Y38.6882 
G01 X-26.6830 Y38.6431 
G01 X-26.8363 Y38.5407 
G01 X-27.0066 Y38.4702 
G01 X-27.1873 Y38.4342 
G00 Z3.0000  
G00 X-27.1873 Y43.5142 
G01 Z-0.1000 F250   
G01 X-28.6926 Y43.5142 F650   
G01 X-28.8733 Y43.5502 
G01 X-29.0436 Y43.6207 
G01 X-29.1969 Y43.7231 
G01 X-29.3272 Y43.8534 
G01 X-29.4296 Y44.0067 
G01 X-29.5001 Y44.1770 
G01 X-29.5361 Y44.3577 
G01 X-29.5361 Y44.5422 
G01 X-29.5001 Y44.7229 
G01 X-29.4296 Y44.8932 
G01 X-29.3272 Y45.0465 
G01 X-29.1969 Y45.1768 
G01 X-29.0436 Y45.2792 
G01 X-28.8733 Y45.3497 
G01 X-28.6926 Y45.3857 
G01 X-27.1873 Y45.3857 
G01 X-27.0066 Y45.3497 
G01 X-26.8363 Y45.2792 
G01 X-26.6830 Y45.1768 
G01 X-26.6379 Y45.1317 
G01 X-24.4073 Y45.1317 
G01 X-24.2978 Y45.2412 
G01 X-24.1657 Y45.3372 
G01 X-24.0202 Y45.4113 
G01 X-23.8649 Y45.4618 
G01 X-23.7036 Y45.4873 
G01 X-22.0163 Y45.4873 
G01 X-21.8550 Y45.4618 
G01 X-21.6997 Y45.4113 
G01 X-21.5542 Y45.3372 
G01 X-21.4221 Y45.2412 
G01 X-21.3067 Y45.1258 
G01 X-21.2107 Y44.9937 
G01 X-21.1366 Y44.8482 
G01 X-21.0861 Y44.6929 
G01 X-21.0606 Y44.5316 
G01 X-21.0606 Y44.3683 
G01 X-21.0861 Y44.2070 
G01 X-21.1366 Y44.0517 
G01 X-21.2107 Y43.9062 
G01 X-21.3067 Y43.7741 
G01 X-21.4221 Y43.6587 
G01 X-21.5542 Y43.5627 
G01 X-21.6997 Y43.4886 
G01 X-21.8550 Y43.4381 
G01 X-22.0163 Y43.4126 
G01 X-23.7036 Y43.4126 
G01 X-23.8649 Y43.4381 
G01 X-24.0202 Y43.4886 
G01 X-24.1657 Y43.5627 
G01 X-24.2978 Y43.6587 
G01 X-24.4073 Y43.7682 
G01 X-26.6379 Y43.7682 
G01 X-26.6830 Y43.7231 
G01 X-26.8363 Y43.6207 
G01 X-27.0066 Y43.5502 
G01 X-27.1873 Y43.5142 
G00 Z3.0000  
G00 X-27.1873 Y46.0542 
G01 Z-0.1000 F250   
G01 X-28.6926 Y46.0542 F650   
G01 X-28.8733 Y46.0902 
G01 X-29.0436 Y46.1607 
G01 X-29.1969 Y46.2631 
G01 X-29.3272 Y46.3934 
G01 X-29.4296 Y46.5467 
G01 X-29.5001 Y46.7170 
G01 X-29.5361 Y46.8977 
G01 X-29.5361 Y47.0822 
G01 X-29.5001 Y47.2629 
G01 X-29.4296 Y47.4332 
G01 X-29.3272 Y47.5865 
G01 X-29.1969 Y47.7168 
G01 X-29.0436 Y47.8192 
G01 X-28.8733 Y47.8897 
G01 X-28.6926 Y47.9257 
G01 X-27.1873 Y47.9257 
G01 X-27.0066 Y47.8897 
G01 X-26.8363 Y47.8192 
G01 X-26.6830 Y47.7168 
G01 X-26.5527 Y47.5865 
G01 X-26.4503 Y47.4332 
G01 X-26.3798 Y47.2629 
G01 X-26.3438 Y47.0822 
G01 X-26.3438 Y46.8977 
G01 X-26.3798 Y46.7170 
G01 X-26.4503 Y46.5467 
G01 X-26.5527 Y46.3934 
G01 X-26.6830 Y46.2631 
G01 X-26.8363 Y46.1607 
G01 X-27.0066 Y46.0902 
G01 X-27.1873 Y46.0542 
G00 Z3.0000  
G00 X-27.1873 Y48.5942 
G01 Z-0.1000 F250   
G01 X-28.6926 Y48.5942 F650   
G01 X-28.8733 Y48.6302 
G01 X-29.0436 Y48.7007 
G01 X-29.1969 Y48.8031 
G01 X-29.3272 Y48.9334 
G01 X-29.4296 Y49.0867 
G01 X-29.5001 Y49.2570 
G01 X-29.5361 Y49.4377 
G01 X-29.5361 Y49.6222 
G01 X-29.5001 Y49.8029 
G01 X-29.4296 Y49.9732 
G01 X-29.3272 Y50.1265 
G01 X-29.1969 Y50.2568 
G01 X-29.0436 Y50.3592 
G01 X-28.8733 Y50.4297 
G01 X-28.6926 Y50.4657 
G01 X-27.1873 Y50.4657 
G01 X-27.0066 Y50.4297 
G01 X-26.8363 Y50.3592 
G01 X-26.6830 Y50.2568 
G01 X-26.5527 Y50.1265 
G01 X-26.4503 Y49.9732 
G01 X-26.3798 Y49.8029 
G01 X-26.3438 Y49.6222 
G01 X-26.3438 Y49.4377 
G01 X-26.3798 Y49.2570 
G01 X-26.4503 Y49.0867 
G01 X-26.5527 Y48.9334 
G01 X-26.6830 Y48.8031 
G01 X-26.8363 Y48.7007 
G01 X-27.0066 Y48.6302 
G01 X-27.1873 Y48.5942 
G00 Z3.0000  
G00 X-27.1873 Y51.1342 
G01 Z-0.1000 F250   
G01 X-28.6926 Y51.1342 F650   
G01 X-28.8733 Y51.1702 
G01 X-29.0436 Y51.2407 
G01 X-29.1969 Y51.3431 
G01 X-29.3272 Y51.4734 
G01 X-29.4296 Y51.6267 
G01 X-29.5001 Y51.7970 
G01 X-29.5361 Y51.9777 
G01 X-29.5361 Y52.1622 
G01 X-29.5001 Y52.3429 
G01 X-29.4296 Y52.5132 
G01 X-29.3272 Y52.6665 
G01 X-29.1969 Y52.7968 
G01 X-29.0436 Y52.8992 
G01 X-28.8733 Y52.9697 
G01 X-28.6926 Y53.0057 
G01 X-27.1873 Y53.0057 
G01 X-27.0066 Y52.9697 
G01 X-26.8363 Y52.8992 
G01 X-26.6830 Y52.7968 
G01 X-26.5527 Y52.6665 
G01 X-26.4503 Y52.5132 
G01 X-26.3798 Y52.3429 
G01 X-26.3438 Y52.1622 
G01 X-26.3438 Y51.9777 
G01 X-26.3798 Y51.7970 
G01 X-26.4503 Y51.6267 
G01 X-26.5527 Y51.4734 
G01 X-26.6830 Y51.3431 
G01 X-26.8363 Y51.2407 
G01 X-27.0066 Y51.1702 
G01 X-27.1873 Y51.1342 
G00 Z3.0000  
G00 X-27.1873 Y53.6742 
G01 Z-0.1000 F250   
G01 X-28.6926 Y53.6742 F650   
G01 X-28.8733 Y53.7102 
G01 X-29.0436 Y53.7807 
G01 X-29.1969 Y53.8831 
G01 X-29.3272 Y54.0134 
G01 X-29.4296 Y54.1667 
G01 X-29.5001 Y54.3370 
G01 X-29.5361 Y54.5177 
G01 X-29.5361 Y54.7022 
G01 X-29.5001 Y54.8829 
G01 X-29.4296 Y55.0532 
G01 X-29.3272 Y55.2065 
G01 X-29.1969 Y55.3368 
G01 X-29.0436 Y55.4392 
G01 X-28.8733 Y55.5097 
G01 X-28.6926 Y55.5457 
G01 X-27.1873 Y55.5457 
G01 X-27.0066 Y55.5097 
G01 X-26.8363 Y55.4392 
G01 X-26.6830 Y55.3368 
G01 X-26.5527 Y55.2065 
G01 X-26.4503 Y55.0532 
G01 X-26.3798 Y54.8829 
G01 X-26.3438 Y54.7022 
G01 X-26.3438 Y54.5177 
G01 X-26.3798 Y54.3370 
G01 X-26.4503 Y54.1667 
G01 X-26.5527 Y54.0134 
G01 X-26.6830 Y53.8831 
G01 X-26.8363 Y53.7807 
G01 X-27.0066 Y53.7102 
G01 X-27.1873 Y53.6742 
G00 Z3.0000  
G00 X-27.1873 Y56.2142 
G01 Z-0.1000 F250   
G01 X-28.6926 Y56.2142 F650   
G01 X-28.8733 Y56.2502 
G01 X-29.0436 Y56.3207 
G01 X-29.1969 Y56.4231 
G01 X-29.3272 Y56.5534 
G01 X-29.4296 Y56.7067 
G01 X-29.5001 Y56.8770 
G01 X-29.5361 Y57.0577 
G01 X-29.5361 Y57.2422 
G01 X-29.5001 Y57.4229 
G01 X-29.4296 Y57.5932 
G01 X-29.3272 Y57.7465 
G01 X-29.1969 Y57.8768 
G01 X-29.0436 Y57.9792 
G01 X-28.8733 Y58.0497 
G01 X-28.6926 Y58.0857 
G01 X-27.1873 Y58.0857 
G01 X-27.0066 Y58.0497 
G01 X-26.8363 Y57.9792 
G01 X-26.6830 Y57.8768 
G01 X-26.5527 Y57.7465 
G01 X-26.4503 Y57.5932 
G01 X-26.3798 Y57.4229 
G01 X-26.3438 Y57.2422 
G01 X-26.3438 Y57.0577 
G01 X-26.3798 Y56.8770 
G01 X-26.4503 Y56.7067 
G01 X-26.5527 Y56.5534 
G01 X-26.6830 Y56.4231 
G01 X-26.8363 Y56.3207 
G01 X-27.0066 Y56.2502 
G01 X-27.1873 Y56.2142 
G00 Z3.0000  
G00 X-34.8073 Y58.7542 
G01 Z-0.1000 F250   
G01 X-36.3126 Y58.7542 F650   
G01 X-36.4933 Y58.7902 
G01 X-36.6636 Y58.8607 
G01 X-36.8169 Y58.9631 
G01 X-36.8619 Y59.0082 
G01 X-38.6882 Y59.0082 
G01 X-38.6882 Y46.9228 
G01 X-38.7144 Y46.7911 
G01 X-38.7658 Y46.6670 
G01 X-38.8404 Y46.5553 
G01 X-38.9353 Y46.4604 
G01 X-39.0470 Y46.3858 
G01 X-39.1711 Y46.3344 
G01 X-39.3028 Y46.3082 
G01 X-39.4371 Y46.3082 
G01 X-42.2361 Y46.3082 
G01 X-42.2918 Y46.2314 
G01 X-42.4214 Y46.1018 
G01 X-42.5697 Y45.9941 
G01 X-42.7330 Y45.9109 
G01 X-42.9073 Y45.8543 
G01 X-43.0883 Y45.8256 
G01 X-43.2716 Y45.8256 
G01 X-43.4526 Y45.8543 
G01 X-43.6269 Y45.9109 
G01 X-43.7902 Y45.9941 
G01 X-43.9385 Y46.1018 
G01 X-44.0681 Y46.2314 
G01 X-44.1758 Y46.3797 
G01 X-44.2590 Y46.5430 
G01 X-44.3156 Y46.7173 
G01 X-44.3443 Y46.8983 
G01 X-44.3443 Y47.0816 
G01 X-44.3156 Y47.2626 
G01 X-44.2590 Y47.4369 
G01 X-44.1758 Y47.6002 
G01 X-44.0681 Y47.7485 
G01 X-43.9385 Y47.8781 
G01 X-43.7902 Y47.9858 
G01 X-43.6269 Y48.0690 
G01 X-43.4526 Y48.1256 
G01 X-43.2716 Y48.1543 
G01 X-43.0883 Y48.1543 
G01 X-42.9073 Y48.1256 
G01 X-42.7330 Y48.0690 
G01 X-42.5697 Y47.9858 
G01 X-42.4214 Y47.8781 
G01 X-42.2918 Y47.7485 
G01 X-42.2361 Y47.6717 
G01 X-40.0517 Y47.6717 
G01 X-40.0517 Y59.6228 
G01 X-40.0517 Y59.7571 
G01 X-40.0255 Y59.8888 
G01 X-39.9741 Y60.0129 
G01 X-39.8995 Y60.1246 
G01 X-39.8046 Y60.2195 
G01 X-39.6929 Y60.2941 
G01 X-39.5688 Y60.3455 
G01 X-39.4371 Y60.3717 
G01 X-36.8619 Y60.3717 
G01 X-36.8169 Y60.4168 
G01 X-36.6636 Y60.5192 
G01 X-36.4933 Y60.5897 
G01 X-36.3126 Y60.6257 
G01 X-34.8073 Y60.6257 
G01 X-34.6266 Y60.5897 
G01 X-34.4563 Y60.5192 
G01 X-34.3030 Y60.4168 
G01 X-34.1727 Y60.2865 
G01 X-34.0703 Y60.1332 
G01 X-33.9998 Y59.9629 
G01 X-33.9638 Y59.7822 
G01 X-33.9638 Y59.5977 
G01 X-33.9998 Y59.4170 
G01 X-34.0703 Y59.2467 
G01 X-34.1727 Y59.0934 
G01 X-34.3030 Y58.9631 
G01 X-34.4563 Y58.8607 
G01 X-34.6266 Y58.7902 
G01 X-34.8073 Y58.7542 
G00 Z3.0000  
G00 X-34.8073 Y48.5942 
G01 Z-0.1000 F250   
G01 X-36.3126 Y48.5942 F650   
G01 X-36.4933 Y48.6302 
G01 X-36.6636 Y48.7007 
G01 X-36.8169 Y48.8031 
G01 X-36.9472 Y48.9334 
G01 X-37.0496 Y49.0867 
G01 X-37.1201 Y49.2570 
G01 X-37.1561 Y49.4377 
G01 X-37.1561 Y49.6222 
G01 X-37.1201 Y49.8029 
G01 X-37.0496 Y49.9732 
G01 X-36.9472 Y50.1265 
G01 X-36.8169 Y50.2568 
G01 X-36.6636 Y50.3592 
G01 X-36.4933 Y50.4297 
G01 X-36.3126 Y50.4657 
G01 X-34.8073 Y50.4657 
G01 X-34.6266 Y50.4297 
G01 X-34.4563 Y50.3592 
G01 X-34.3030 Y50.2568 
G01 X-34.1727 Y50.1265 
G01 X-34.0703 Y49.9732 
G01 X-33.9998 Y49.8029 
G01 X-33.9638 Y49.6222 
G01 X-33.9638 Y49.4377 
G01 X-33.9998 Y49.2570 
G01 X-34.0703 Y49.0867 
G01 X-34.1727 Y48.9334 
G01 X-34.3030 Y48.8031 
G01 X-34.4563 Y48.7007 
G01 X-34.6266 Y48.6302 
G01 X-34.8073 Y48.5942 
G00 Z3.0000  
G00 X-34.8073 Y51.1342 
G01 Z-0.1000 F250   
G01 X-36.3126 Y51.1342 F650   
G01 X-36.4933 Y51.1702 
G01 X-36.6636 Y51.2407 
G01 X-36.8169 Y51.3431 
G01 X-36.9472 Y51.4734 
G01 X-37.0496 Y51.6267 
G01 X-37.1201 Y51.7970 
G01 X-37.1561 Y51.9777 
G01 X-37.1561 Y52.1622 
G01 X-37.1201 Y52.3429 
G01 X-37.0496 Y52.5132 
G01 X-36.9472 Y52.6665 
G01 X-36.8169 Y52.7968 
G01 X-36.6636 Y52.8992 
G01 X-36.4933 Y52.9697 
G01 X-36.3126 Y53.0057 
G01 X-34.8073 Y53.0057 
G01 X-34.6266 Y52.9697 
G01 X-34.4563 Y52.8992 
G01 X-34.3030 Y52.7968 
G01 X-34.1727 Y52.6665 
G01 X-34.0703 Y52.5132 
G01 X-33.9998 Y52.3429 
G01 X-33.9638 Y52.1622 
G01 X-33.9638 Y51.9777 
G01 X-33.9998 Y51.7970 
G01 X-34.0703 Y51.6267 
G01 X-34.1727 Y51.4734 
G01 X-34.3030 Y51.3431 
G01 X-34.4563 Y51.2407 
G01 X-34.6266 Y51.1702 
G01 X-34.8073 Y51.1342 
G00 Z3.0000  
G00 X-34.8073 Y46.0542 
G01 Z-0.1000 F250   
G01 X-36.3126 Y46.0542 F650   
G01 X-36.4933 Y46.0902 
G01 X-36.6636 Y46.1607 
G01 X-36.8169 Y46.2631 
G01 X-36.9472 Y46.3934 
G01 X-37.0496 Y46.5467 
G01 X-37.1201 Y46.7170 
G01 X-37.1561 Y46.8977 
G01 X-37.1561 Y47.0822 
G01 X-37.1201 Y47.2629 
G01 X-37.0496 Y47.4332 
G01 X-36.9472 Y47.5865 
G01 X-36.8169 Y47.7168 
G01 X-36.6636 Y47.8192 
G01 X-36.4933 Y47.8897 
G01 X-36.3126 Y47.9257 
G01 X-34.8073 Y47.9257 
G01 X-34.6266 Y47.8897 
G01 X-34.4563 Y47.8192 
G01 X-34.3030 Y47.7168 
G01 X-34.1727 Y47.5865 
G01 X-34.0703 Y47.4332 
G01 X-33.9998 Y47.2629 
G01 X-33.9638 Y47.0822 
G01 X-33.9638 Y46.8977 
G01 X-33.9998 Y46.7170 
G01 X-34.0703 Y46.5467 
G01 X-34.1727 Y46.3934 
G01 X-34.3030 Y46.2631 
G01 X-34.4563 Y46.1607 
G01 X-34.6266 Y46.0902 
G01 X-34.8073 Y46.0542 
G00 Z3.0000  
G00 X-34.8073 Y43.5142 
G01 Z-0.1000 F250   
G01 X-36.3126 Y43.5142 F650   
G01 X-36.4933 Y43.5502 
G01 X-36.6636 Y43.6207 
G01 X-36.8169 Y43.7231 
G01 X-36.8620 Y43.7682 
G01 X-42.2361 Y43.7682 
G01 X-42.2918 Y43.6914 
G01 X-42.4214 Y43.5618 
G01 X-42.5697 Y43.4541 
G01 X-42.7330 Y43.3709 
G01 X-42.9073 Y43.3143 
G01 X-43.0883 Y43.2856 
G01 X-43.2716 Y43.2856 
G01 X-43.4526 Y43.3143 
G01 X-43.6269 Y43.3709 
G01 X-43.7902 Y43.4541 
G01 X-43.9385 Y43.5618 
G01 X-44.0681 Y43.6914 
G01 X-44.1758 Y43.8397 
G01 X-44.2590 Y44.0030 
G01 X-44.3156 Y44.1773 
G01 X-44.3443 Y44.3583 
G01 X-44.3443 Y44.5416 
G01 X-44.3156 Y44.7226 
G01 X-44.2590 Y44.8969 
G01 X-44.1758 Y45.0602 
G01 X-44.0681 Y45.2085 
G01 X-43.9385 Y45.3381 
G01 X-43.7902 Y45.4458 
G01 X-43.6269 Y45.5290 
G01 X-43.4526 Y45.5856 
G01 X-43.2716 Y45.6143 
G01 X-43.0883 Y45.6143 
G01 X-42.9073 Y45.5856 
G01 X-42.7330 Y45.5290 
G01 X-42.5697 Y45.4458 
G01 X-42.4214 Y45.3381 
G01 X-42.2918 Y45.2085 
G01 X-42.2361 Y45.1317 
G01 X-36.8620 Y45.1317 
G01 X-36.8169 Y45.1768 
G01 X-36.6636 Y45.2792 
G01 X-36.4933 Y45.3497 
G01 X-36.3126 Y45.3857 
G01 X-34.8073 Y45.3857 
G01 X-34.6266 Y45.3497 
G01 X-34.4563 Y45.2792 
G01 X-34.3030 Y45.1768 
G01 X-34.1727 Y45.0465 
G01 X-34.0703 Y44.8932 
G01 X-33.9998 Y44.7229 
G01 X-33.9638 Y44.5422 
G01 X-33.9638 Y44.3577 
G01 X-33.9998 Y44.1770 
G01 X-34.0703 Y44.0067 
G01 X-34.1727 Y43.8534 
G01 X-34.3030 Y43.7231 
G01 X-34.4563 Y43.6207 
G01 X-34.6266 Y43.5502 
G01 X-34.8073 Y43.5142 
G00 Z3.0000  
G00 X-34.8073 Y56.2142 
G01 Z-0.1000 F250   
G01 X-36.3126 Y56.2142 F650   
G01 X-36.4933 Y56.2502 
G01 X-36.6636 Y56.3207 
G01 X-36.8169 Y56.4231 
G01 X-36.9472 Y56.5534 
G01 X-37.0496 Y56.7067 
G01 X-37.1201 Y56.8770 
G01 X-37.1561 Y57.0577 
G01 X-37.1561 Y57.2422 
G01 X-37.1201 Y57.4229 
G01 X-37.0496 Y57.5932 
G01 X-36.9472 Y57.7465 
G01 X-36.8169 Y57.8768 
G01 X-36.6636 Y57.9792 
G01 X-36.4933 Y58.0497 
G01 X-36.3126 Y58.0857 
G01 X-34.8073 Y58.0857 
G01 X-34.6266 Y58.0497 
G01 X-34.4563 Y57.9792 
G01 X-34.3030 Y57.8768 
G01 X-34.1727 Y57.7465 
G01 X-34.0703 Y57.5932 
G01 X-33.9998 Y57.4229 
G01 X-33.9638 Y57.2422 
G01 X-33.9638 Y57.0577 
G01 X-33.9998 Y56.8770 
G01 X-34.0703 Y56.7067 
G01 X-34.1727 Y56.5534 
G01 X-34.3030 Y56.4231 
G01 X-34.4563 Y56.3207 
G01 X-34.6266 Y56.2502 
G01 X-34.8073 Y56.2142 
G00 Z3.0000  
G00 X-34.8073 Y53.6742 
G01 Z-0.1000 F250   
G01 X-36.3126 Y53.6742 F650   
G01 X-36.4933 Y53.7102 
G01 X-36.6636 Y53.7807 
G01 X-36.8169 Y53.8831 
G01 X-36.9472 Y54.0134 
G01 X-37.0496 Y54.1667 
G01 X-37.1201 Y54.3370 
G01 X-37.1561 Y54.5177 
G01 X-37.1561 Y54.7022 
G01 X-37.1201 Y54.8829 
G01 X-37.0496 Y55.0532 
G01 X-36.9472 Y55.2065 
G01 X-36.8169 Y55.3368 
G01 X-36.6636 Y55.4392 
G01 X-36.4933 Y55.5097 
G01 X-36.3126 Y55.5457 
G01 X-34.8073 Y55.5457 
G01 X-34.6266 Y55.5097 
G01 X-34.4563 Y55.4392 
G01 X-34.3030 Y55.3368 
G01 X-34.1727 Y55.2065 
G01 X-34.0703 Y55.0532 
G01 X-33.9998 Y54.8829 
G01 X-33.9638 Y54.7022 
G01 X-33.9638 Y54.5177 
G01 X-33.9998 Y54.3370 
G01 X-34.0703 Y54.1667 
G01 X-34.1727 Y54.0134 
G01 X-34.3030 Y53.8831 
G01 X-34.4563 Y53.7807 
G01 X-34.6266 Y53.7102 
G01 X-34.8073 Y53.6742 
G00 Z3.0000  
G00 X-34.8073 Y38.4342 
G01 Z-0.1000 F250   
G01 X-36.3126 Y38.4342 F650   
G01 X-36.4933 Y38.4702 
G01 X-36.6636 Y38.5407 
G01 X-36.8169 Y38.6431 
G01 X-36.8620 Y38.6882 
G01 X-42.2361 Y38.6882 
G01 X-42.2918 Y38.6114 
G01 X-42.4214 Y38.4818 
G01 X-42.5697 Y38.3741 
G01 X-42.7330 Y38.2909 
G01 X-42.9073 Y38.2343 
G01 X-43.0883 Y38.2056 
G01 X-43.2716 Y38.2056 
G01 X-43.4526 Y38.2343 
G01 X-43.6269 Y38.2909 
G01 X-43.7902 Y38.3741 
G01 X-43.9385 Y38.4818 
G01 X-44.0681 Y38.6114 
G01 X-44.1758 Y38.7597 
G01 X-44.2590 Y38.9230 
G01 X-44.3156 Y39.0973 
G01 X-44.3443 Y39.2783 
G01 X-44.3443 Y39.4616 
G01 X-44.3156 Y39.6426 
G01 X-44.2590 Y39.8169 
G01 X-44.1758 Y39.9802 
G01 X-44.0681 Y40.1285 
G01 X-43.9385 Y40.2581 
G01 X-43.7902 Y40.3658 
G01 X-43.6269 Y40.4490 
G01 X-43.4526 Y40.5056 
G01 X-43.2716 Y40.5343 
G01 X-43.0883 Y40.5343 
G01 X-42.9073 Y40.5056 
G01 X-42.7330 Y40.4490 
G01 X-42.5697 Y40.3658 
G01 X-42.4214 Y40.2581 
G01 X-42.2918 Y40.1285 
G01 X-42.2361 Y40.0517 
G01 X-36.8620 Y40.0517 
G01 X-36.8169 Y40.0968 
G01 X-36.6636 Y40.1992 
G01 X-36.4933 Y40.2697 
G01 X-36.3126 Y40.3057 
G01 X-34.8073 Y40.3057 
G01 X-34.6266 Y40.2697 
G01 X-34.4563 Y40.1992 
G01 X-34.3030 Y40.0968 
G01 X-34.1727 Y39.9665 
G01 X-34.0703 Y39.8132 
G01 X-33.9998 Y39.6429 
G01 X-33.9638 Y39.4622 
G01 X-33.9638 Y39.2777 
G01 X-33.9998 Y39.0970 
G01 X-34.0703 Y38.9267 
G01 X-34.1727 Y38.7734 
G01 X-34.3030 Y38.6431 
G01 X-34.4563 Y38.5407 
G01 X-34.6266 Y38.4702 
G01 X-34.8073 Y38.4342 
G00 Z3.0000  
G00 X-64.3436 Y55.6473 
G01 Z-0.1000 F250   
G01 X-62.6563 Y55.6473 F650   
G01 X-62.4950 Y55.6218 
G01 X-62.3397 Y55.5713 
G01 X-62.1942 Y55.4972 
G01 X-62.0621 Y55.4012 
G01 X-61.9526 Y55.2917 
G01 X-59.3638 Y55.2917 
G01 X-59.3081 Y55.3685 
G01 X-59.1785 Y55.4981 
G01 X-59.1017 Y55.5538 
G01 X-59.1017 Y63.5671 
G01 X-59.0755 Y63.6988 
G01 X-59.0241 Y63.8229 
G01 X-58.9495 Y63.9346 
G01 X-58.8546 Y64.0295 
G01 X-58.7429 Y64.1041 
G01 X-58.6188 Y64.1555 
G01 X-58.4871 Y64.1817 
G01 X-58.3528 Y64.1817 
G01 X-27.8728 Y64.1817 
G01 X-27.7411 Y64.1555 
G01 X-27.6170 Y64.1041 
G01 X-27.5053 Y64.0295 
G01 X-27.4104 Y63.9346 
G01 X-27.3358 Y63.8229 
G01 X-27.2844 Y63.6988 
G01 X-27.2582 Y63.5671 
G01 X-27.2582 Y63.4328 
G01 X-27.2582 Y60.6257 
G01 X-27.1873 Y60.6257 
G01 X-27.0066 Y60.5897 
G01 X-26.8363 Y60.5192 
G01 X-26.6830 Y60.4168 
G01 X-26.5527 Y60.2865 
G01 X-26.4503 Y60.1332 
G01 X-26.3798 Y59.9629 
G01 X-26.3438 Y59.7822 
G01 X-26.3438 Y59.5977 
G01 X-26.3798 Y59.4170 
G01 X-26.4503 Y59.2467 
G01 X-26.5527 Y59.0934 
G01 X-26.6830 Y58.9631 
G01 X-26.8363 Y58.8607 
G01 X-27.0066 Y58.7902 
G01 X-27.1873 Y58.7542 
G01 X-28.6926 Y58.7542 
G01 X-28.8733 Y58.7902 
G01 X-29.0436 Y58.8607 
G01 X-29.1969 Y58.9631 
G01 X-29.3272 Y59.0934 
G01 X-29.4296 Y59.2467 
G01 X-29.5001 Y59.4170 
G01 X-29.5361 Y59.5977 
G01 X-29.5361 Y59.7822 
G01 X-29.5001 Y59.9629 
G01 X-29.4296 Y60.1332 
G01 X-29.3272 Y60.2865 
G01 X-29.1969 Y60.4168 
G01 X-29.0436 Y60.5192 
G01 X-28.8733 Y60.5897 
G01 X-28.6926 Y60.6257 
G01 X-28.6217 Y60.6257 
G01 X-28.6217 Y62.8182 
G01 X-57.7382 Y62.8182 
G01 X-57.7382 Y55.5538 
G01 X-57.6614 Y55.4981 
G01 X-57.5318 Y55.3685 
G01 X-57.4241 Y55.2202 
G01 X-57.3409 Y55.0569 
G01 X-57.2843 Y54.8826 
G01 X-57.2556 Y54.7016 
G01 X-57.2556 Y54.5183 
G01 X-57.2843 Y54.3373 
G01 X-57.3409 Y54.1630 
G01 X-57.4241 Y53.9997 
G01 X-57.5318 Y53.8514 
G01 X-57.6614 Y53.7218 
G01 X-57.8097 Y53.6141 
G01 X-57.9730 Y53.5309 
G01 X-58.1473 Y53.4743 
G01 X-58.3283 Y53.4456 
G01 X-58.5116 Y53.4456 
G01 X-58.6926 Y53.4743 
G01 X-58.8669 Y53.5309 
G01 X-59.0302 Y53.6141 
G01 X-59.1785 Y53.7218 
G01 X-59.3081 Y53.8514 
G01 X-59.3638 Y53.9282 
G01 X-61.9526 Y53.9282 
